(.../EAGLE-5.11.0/ulp/pcb-gcode.ulp)
(Copyright 2005 - 2009 by John Johnson)
(See readme.txt for licensing terms.)
(This file generated from the board:)
(.../FreeSmoke nano 2.0/untitled.brd)
(Current profile is .../EAGLE-5.11.0/ulp/profiles/mach.pp  )
(This file generated 04.06.2012 17:07:12)
(Settings from pcb-machine.h)
(  Tool Size)
(0.1000  )
(Z Axis Settings)
(  High     Up        Down     Drill)
(10.0000 	2.0000  	-0.1000 	-1.5000 )
(spindle on time = 3.0000)
(milling depth = -1.3000)
(text depth = -0.2000)
(tool change at 20.0000 20.0000 20.0000 )
(feed rate xy = F650   )
(feed rate z  = F250   )
(Settings from pcb-defaults.h)
(Default isolate = 0.0020)
(isolate max = 0.1600)
(isolate step = 0.0800)
(Generated bottom outlines, bottom drill, )
(Unit of measure: mm)
(Metric Mode)
G21
(Absolute Coordinates)
G90
G00 X0.0000  Y0.0000  
M03
G04 P3.000000
G00 Z2.0000  
G00 X-23.3160 Y40.2122 
G01 Z-0.1000 F250   
G01 X-23.3160 Y38.5277 F650   
G01 X-23.3473 Y38.3705 
G01 X-23.4086 Y38.2224 
G01 X-23.4977 Y38.0891 
G01 X-23.5562 Y38.0306 
G01 X-22.7123 Y37.1867 
G01 X-17.8270 Y37.1867 
G01 X-17.7329 Y37.1867 
G01 X-17.6422 Y37.1624 
G01 X-17.5609 Y37.1154 
G01 X-17.4945 Y37.0490 
G01 X-17.4475 Y36.9677 
G01 X-17.4232 Y36.8770 
G01 X-17.4232 Y15.2870 
G01 X-17.4232 Y15.1929 
G01 X-17.4475 Y15.1022 
G01 X-17.4945 Y15.0209 
G01 X-20.0345 Y12.4809 
G01 X-20.1009 Y12.4145 
G01 X-20.1822 Y12.3675 
G01 X-20.2729 Y12.3432 
G01 X-44.4029 Y12.3432 
G01 X-44.4970 Y12.3432 
G01 X-44.5877 Y12.3675 
G01 X-44.6690 Y12.4145 
G01 X-52.7639 Y20.5095 
G01 X-52.7866 Y20.4754 
G01 X-52.8858 Y20.3762 
G01 X-53.0025 Y20.2983 
G01 X-53.1321 Y20.2446 
G01 X-53.2697 Y20.2172 
G01 X-53.4102 Y20.2172 
G01 X-53.5478 Y20.2446 
G01 X-53.6774 Y20.2983 
G01 X-53.7941 Y20.3762 
G01 X-53.8933 Y20.4754 
G01 X-53.9712 Y20.5921 
G01 X-54.0249 Y20.7217 
G01 X-54.0523 Y20.8593 
G01 X-54.0523 Y22.3206 
G01 X-54.0249 Y22.4582 
G01 X-53.9712 Y22.5878 
G01 X-53.8933 Y22.7045 
G01 X-53.7941 Y22.8037 
G01 X-53.6774 Y22.8816 
G01 X-53.5478 Y22.9353 
G01 X-53.4102 Y22.9627 
G01 X-53.2697 Y22.9627 
G01 X-53.1321 Y22.9353 
G01 X-53.0025 Y22.8816 
G01 X-52.8858 Y22.8037 
G01 X-52.7866 Y22.7045 
G01 X-52.7087 Y22.5878 
G01 X-52.6550 Y22.4582 
G01 X-52.6276 Y22.3206 
G01 X-52.6276 Y21.3820 
G01 X-44.3022 Y13.0567 
G01 X-20.4677 Y13.0567 
G01 X-18.1367 Y15.3877 
G01 X-18.1367 Y36.4732 
G01 X-22.9070 Y36.4732 
G01 X-22.9977 Y36.4975 
G01 X-23.0790 Y36.5445 
G01 X-23.1454 Y36.6109 
G01 X-24.3578 Y37.8234 
G01 X-24.3674 Y37.8253 
G01 X-24.5155 Y37.8866 
G01 X-24.6488 Y37.9757 
G01 X-24.7622 Y38.0891 
G01 X-24.8513 Y38.2224 
G01 X-24.9126 Y38.3705 
G01 X-24.9439 Y38.5277 
G01 X-24.9439 Y40.2122 
G01 X-24.9126 Y40.3694 
G01 X-24.8513 Y40.5175 
G01 X-24.7622 Y40.6508 
G01 X-24.6488 Y40.7642 
G01 X-24.5155 Y40.8533 
G01 X-24.3674 Y40.9146 
G01 X-24.2102 Y40.9459 
G01 X-24.0497 Y40.9459 
G01 X-23.8925 Y40.9146 
G01 X-23.7444 Y40.8533 
G01 X-23.6111 Y40.7642 
G01 X-23.4977 Y40.6508 
G01 X-23.4086 Y40.5175 
G01 X-23.3473 Y40.3694 
G01 X-23.3160 Y40.2122 
G00 Z2.0000  
G00 X-55.1676 Y22.3206 
G01 Z-0.1000 F250   
G01 X-55.1676 Y20.8593 F650   
G01 X-55.1950 Y20.7217 
G01 X-55.2487 Y20.5921 
G01 X-55.3266 Y20.4754 
G01 X-55.4258 Y20.3762 
G01 X-55.5425 Y20.2983 
G01 X-55.6721 Y20.2446 
G01 X-55.8097 Y20.2172 
G01 X-55.9502 Y20.2172 
G01 X-56.0878 Y20.2446 
G01 X-56.2174 Y20.2983 
G01 X-56.3341 Y20.3762 
G01 X-56.4333 Y20.4754 
G01 X-56.5112 Y20.5921 
G01 X-56.5649 Y20.7217 
G01 X-56.5923 Y20.8593 
G01 X-56.5923 Y22.3206 
G01 X-56.5649 Y22.4582 
G01 X-56.5112 Y22.5878 
G01 X-56.4333 Y22.7045 
G01 X-56.3341 Y22.8037 
G01 X-56.2174 Y22.8816 
G01 X-56.0878 Y22.9353 
G01 X-55.9502 Y22.9627 
G01 X-55.8097 Y22.9627 
G01 X-55.6721 Y22.9353 
G01 X-55.5425 Y22.8816 
G01 X-55.4258 Y22.8037 
G01 X-55.3266 Y22.7045 
G01 X-55.2487 Y22.5878 
G01 X-55.1950 Y22.4582 
G01 X-55.1676 Y22.3206 
G00 Z2.0000  
G00 X-57.7076 Y22.3206 
G01 Z-0.1000 F250   
G01 X-57.7076 Y20.8593 F650   
G01 X-57.7350 Y20.7217 
G01 X-57.7887 Y20.5921 
G01 X-57.8666 Y20.4754 
G01 X-57.9658 Y20.3762 
G01 X-58.0825 Y20.2983 
G01 X-58.2121 Y20.2446 
G01 X-58.3497 Y20.2172 
G01 X-58.4902 Y20.2172 
G01 X-58.6278 Y20.2446 
G01 X-58.7574 Y20.2983 
G01 X-58.8741 Y20.3762 
G01 X-58.9733 Y20.4754 
G01 X-59.0512 Y20.5921 
G01 X-59.1049 Y20.7217 
G01 X-59.1323 Y20.8593 
G01 X-59.1323 Y22.3206 
G01 X-59.1049 Y22.4582 
G01 X-59.0512 Y22.5878 
G01 X-58.9733 Y22.7045 
G01 X-58.8741 Y22.8037 
G01 X-58.7574 Y22.8816 
G01 X-58.6278 Y22.9353 
G01 X-58.4902 Y22.9627 
G01 X-58.3497 Y22.9627 
G01 X-58.2121 Y22.9353 
G01 X-58.0825 Y22.8816 
G01 X-57.9658 Y22.8037 
G01 X-57.8666 Y22.7045 
G01 X-57.7887 Y22.5878 
G01 X-57.7350 Y22.4582 
G01 X-57.7076 Y22.3206 
G00 Z2.0000  
G00 X-60.2476 Y22.3206 
G01 Z-0.1000 F250   
G01 X-60.2476 Y20.8593 F650   
G01 X-60.2750 Y20.7217 
G01 X-60.3287 Y20.5921 
G01 X-60.4066 Y20.4754 
G01 X-60.5058 Y20.3762 
G01 X-60.6225 Y20.2983 
G01 X-60.7521 Y20.2446 
G01 X-60.8897 Y20.2172 
G01 X-61.0302 Y20.2172 
G01 X-61.1678 Y20.2446 
G01 X-61.2974 Y20.2983 
G01 X-61.4141 Y20.3762 
G01 X-61.5133 Y20.4754 
G01 X-61.5912 Y20.5921 
G01 X-61.6449 Y20.7217 
G01 X-61.6723 Y20.8593 
G01 X-61.6723 Y22.3206 
G01 X-61.6449 Y22.4582 
G01 X-61.5912 Y22.5878 
G01 X-61.5133 Y22.7045 
G01 X-61.4141 Y22.8037 
G01 X-61.2974 Y22.8816 
G01 X-61.1678 Y22.9353 
G01 X-61.0302 Y22.9627 
G01 X-60.8897 Y22.9627 
G01 X-60.7521 Y22.9353 
G01 X-60.6225 Y22.8816 
G01 X-60.5058 Y22.8037 
G01 X-60.4066 Y22.7045 
G01 X-60.3287 Y22.5878 
G01 X-60.2750 Y22.4582 
G01 X-60.2476 Y22.3206 
G00 Z2.0000  
G00 X-62.7876 Y22.3206 
G01 Z-0.1000 F250   
G01 X-62.7876 Y20.8593 F650   
G01 X-62.8150 Y20.7217 
G01 X-62.8687 Y20.5921 
G01 X-62.9466 Y20.4754 
G01 X-63.0458 Y20.3762 
G01 X-63.1625 Y20.2983 
G01 X-63.2921 Y20.2446 
G01 X-63.4297 Y20.2172 
G01 X-63.5702 Y20.2172 
G01 X-63.7078 Y20.2446 
G01 X-63.8374 Y20.2983 
G01 X-63.9541 Y20.3762 
G01 X-64.0533 Y20.4754 
G01 X-64.1312 Y20.5921 
G01 X-64.1849 Y20.7217 
G01 X-64.2123 Y20.8593 
G01 X-64.2123 Y22.3206 
G01 X-64.1849 Y22.4582 
G01 X-64.1312 Y22.5878 
G01 X-64.0533 Y22.7045 
G01 X-63.9541 Y22.8037 
G01 X-63.8374 Y22.8816 
G01 X-63.7078 Y22.9353 
G01 X-63.5702 Y22.9627 
G01 X-63.4297 Y22.9627 
G01 X-63.2921 Y22.9353 
G01 X-63.1625 Y22.8816 
G01 X-63.0458 Y22.8037 
G01 X-62.9466 Y22.7045 
G01 X-62.8687 Y22.5878 
G01 X-62.8150 Y22.4582 
G01 X-62.7876 Y22.3206 
G00 Z2.0000  
G00 X-65.3276 Y22.3206 
G01 Z-0.1000 F250   
G01 X-65.3276 Y20.8593 F650   
G01 X-65.3550 Y20.7217 
G01 X-65.4087 Y20.5921 
G01 X-65.4866 Y20.4754 
G01 X-65.5858 Y20.3762 
G01 X-65.7025 Y20.2983 
G01 X-65.8321 Y20.2446 
G01 X-65.9697 Y20.2172 
G01 X-66.1102 Y20.2172 
G01 X-66.2478 Y20.2446 
G01 X-66.3774 Y20.2983 
G01 X-66.4941 Y20.3762 
G01 X-66.5933 Y20.4754 
G01 X-66.6712 Y20.5921 
G01 X-66.7249 Y20.7217 
G01 X-66.7523 Y20.8593 
G01 X-66.7523 Y22.3206 
G01 X-66.7249 Y22.4582 
G01 X-66.6712 Y22.5878 
G01 X-66.5933 Y22.7045 
G01 X-66.4941 Y22.8037 
G01 X-66.3774 Y22.8816 
G01 X-66.2478 Y22.9353 
G01 X-66.1102 Y22.9627 
G01 X-65.9697 Y22.9627 
G01 X-65.8321 Y22.9353 
G01 X-65.7025 Y22.8816 
G01 X-65.5858 Y22.8037 
G01 X-65.4866 Y22.7045 
G01 X-65.4087 Y22.5878 
G01 X-65.3550 Y22.4582 
G01 X-65.3276 Y22.3206 
G00 Z2.0000  
G00 X-67.8676 Y22.3206 
G01 Z-0.1000 F250   
G01 X-67.8676 Y20.8593 F650   
G01 X-67.8950 Y20.7217 
G01 X-67.9487 Y20.5921 
G01 X-68.0266 Y20.4754 
G01 X-68.1258 Y20.3762 
G01 X-68.2425 Y20.2983 
G01 X-68.3721 Y20.2446 
G01 X-68.5097 Y20.2172 
G01 X-68.6502 Y20.2172 
G01 X-68.7878 Y20.2446 
G01 X-68.9174 Y20.2983 
G01 X-69.0341 Y20.3762 
G01 X-69.1333 Y20.4754 
G01 X-69.2112 Y20.5921 
G01 X-69.2649 Y20.7217 
G01 X-69.2923 Y20.8593 
G01 X-69.2923 Y22.3206 
G01 X-69.2649 Y22.4582 
G01 X-69.2112 Y22.5878 
G01 X-69.1333 Y22.7045 
G01 X-69.0341 Y22.8037 
G01 X-68.9174 Y22.8816 
G01 X-68.7878 Y22.9353 
G01 X-68.6502 Y22.9627 
G01 X-68.5097 Y22.9627 
G01 X-68.3721 Y22.9353 
G01 X-68.2425 Y22.8816 
G01 X-68.1258 Y22.8037 
G01 X-68.0266 Y22.7045 
G01 X-67.9487 Y22.5878 
G01 X-67.8950 Y22.4582 
G01 X-67.8676 Y22.3206 
G00 Z2.0000  
G00 X-70.4076 Y22.3206 
G01 Z-0.1000 F250   
G01 X-70.4076 Y20.8593 F650   
G01 X-70.4350 Y20.7217 
G01 X-70.4887 Y20.5921 
G01 X-70.5666 Y20.4754 
G01 X-70.6658 Y20.3762 
G01 X-70.7825 Y20.2983 
G01 X-70.9121 Y20.2446 
G01 X-71.0497 Y20.2172 
G01 X-71.1902 Y20.2172 
G01 X-71.3278 Y20.2446 
G01 X-71.4574 Y20.2983 
G01 X-71.5741 Y20.3762 
G01 X-71.6733 Y20.4754 
G01 X-71.7512 Y20.5921 
G01 X-71.8049 Y20.7217 
G01 X-71.8323 Y20.8593 
G01 X-71.8323 Y22.3206 
G01 X-71.8049 Y22.4582 
G01 X-71.7512 Y22.5878 
G01 X-71.6733 Y22.7045 
G01 X-71.5741 Y22.8037 
G01 X-71.4574 Y22.8816 
G01 X-71.3278 Y22.9353 
G01 X-71.1902 Y22.9627 
G01 X-71.0497 Y22.9627 
G01 X-70.9121 Y22.9353 
G01 X-70.7825 Y22.8816 
G01 X-70.6658 Y22.8037 
G01 X-70.5666 Y22.7045 
G01 X-70.4887 Y22.5878 
G01 X-70.4350 Y22.4582 
G01 X-70.4076 Y22.3206 
G00 Z2.0000  
G00 X-72.9476 Y22.3206 
G01 Z-0.1000 F250   
G01 X-72.9476 Y20.8593 F650   
G01 X-72.9750 Y20.7217 
G01 X-73.0287 Y20.5921 
G01 X-73.1066 Y20.4754 
G01 X-73.2058 Y20.3762 
G01 X-73.3225 Y20.2983 
G01 X-73.4521 Y20.2446 
G01 X-73.5897 Y20.2172 
G01 X-73.7302 Y20.2172 
G01 X-73.8678 Y20.2446 
G01 X-73.9974 Y20.2983 
G01 X-74.1141 Y20.3762 
G01 X-74.2133 Y20.4754 
G01 X-74.2912 Y20.5921 
G01 X-74.3449 Y20.7217 
G01 X-74.3723 Y20.8593 
G01 X-74.3723 Y22.3206 
G01 X-74.3449 Y22.4582 
G01 X-74.2912 Y22.5878 
G01 X-74.2133 Y22.7045 
G01 X-74.1141 Y22.8037 
G01 X-74.0167 Y22.8687 
G01 X-74.0167 Y31.6022 
G01 X-75.1490 Y32.7345 
G01 X-75.2154 Y32.8009 
G01 X-75.2624 Y32.8822 
G01 X-75.2867 Y32.9729 
G01 X-75.2867 Y64.8170 
G01 X-75.2867 Y73.6129 
G01 X-75.2867 Y73.7070 
G01 X-75.2624 Y73.7977 
G01 X-75.2154 Y73.8790 
G01 X-73.9454 Y75.1490 
G01 X-73.8790 Y75.2154 
G01 X-73.7977 Y75.2624 
G01 X-73.7070 Y75.2867 
G01 X-64.7229 Y75.2867 
G01 X-64.6322 Y75.2624 
G01 X-64.5509 Y75.2154 
G01 X-64.4845 Y75.1490 
G01 X-53.1922 Y63.8567 
G01 X-51.0252 Y63.8567 
G01 X-51.0133 Y63.8855 
G01 X-50.9242 Y64.0188 
G01 X-50.8108 Y64.1322 
G01 X-50.6775 Y64.2213 
G01 X-50.5294 Y64.2826 
G01 X-50.3722 Y64.3139 
G01 X-48.6877 Y64.3139 
G01 X-48.5305 Y64.2826 
G01 X-48.3824 Y64.2213 
G01 X-48.2491 Y64.1322 
G01 X-48.1357 Y64.0188 
G01 X-48.0466 Y63.8855 
G01 X-48.0347 Y63.8567 
G01 X-47.1377 Y63.8567 
G01 X-46.0767 Y64.9177 
G01 X-46.0767 Y72.4370 
G01 X-46.0524 Y72.5277 
G01 X-46.0054 Y72.6090 
G01 X-45.9390 Y72.6754 
G01 X-43.3990 Y75.2154 
G01 X-43.3177 Y75.2624 
G01 X-43.2270 Y75.2867 
G01 X-43.1329 Y75.2867 
G01 X-26.6229 Y75.2867 
G01 X-26.5322 Y75.2624 
G01 X-26.4509 Y75.2154 
G01 X-26.3845 Y75.1490 
G01 X-25.6745 Y74.4390 
G01 X-25.6275 Y74.3577 
G01 X-25.6032 Y74.2670 
G01 X-25.6032 Y74.1729 
G01 X-25.6032 Y73.6742 
G01 X-25.4505 Y73.6247 
G01 X-25.2645 Y73.5299 
G01 X-25.0955 Y73.4071 
G01 X-24.9478 Y73.2594 
G01 X-24.8250 Y73.0904 
G01 X-24.7302 Y72.9044 
G01 X-24.6657 Y72.7057 
G01 X-24.6330 Y72.4994 
G01 X-24.6330 Y69.7405 
G01 X-24.6540 Y69.6084 
G01 X-23.9822 Y68.9367 
G01 X-17.8270 Y68.9367 
G01 X-17.7329 Y68.9367 
G01 X-17.6422 Y68.9124 
G01 X-17.5609 Y68.8654 
G01 X-17.4945 Y68.7990 
G01 X-17.4475 Y68.7177 
G01 X-17.4232 Y68.6270 
G01 X-17.4232 Y43.2270 
G01 X-17.4232 Y43.1329 
G01 X-17.4475 Y43.0422 
G01 X-17.4945 Y42.9609 
G01 X-20.7760 Y39.6795 
G01 X-20.7760 Y38.5277 
G01 X-20.8073 Y38.3705 
G01 X-20.8686 Y38.2224 
G01 X-20.9577 Y38.0891 
G01 X-21.0711 Y37.9757 
G01 X-21.2044 Y37.8866 
G01 X-21.3525 Y37.8253 
G01 X-21.5097 Y37.7940 
G01 X-21.6702 Y37.7940 
G01 X-21.8274 Y37.8253 
G01 X-21.9755 Y37.8866 
G01 X-22.1088 Y37.9757 
G01 X-22.2222 Y38.0891 
G01 X-22.3113 Y38.2224 
G01 X-22.3726 Y38.3705 
G01 X-22.4039 Y38.5277 
G01 X-22.4039 Y40.2122 
G01 X-22.3726 Y40.3694 
G01 X-22.3113 Y40.5175 
G01 X-22.2222 Y40.6508 
G01 X-22.1088 Y40.7642 
G01 X-21.9755 Y40.8533 
G01 X-21.8274 Y40.9146 
G01 X-21.6702 Y40.9459 
G01 X-21.5097 Y40.9459 
G01 X-21.3525 Y40.9146 
G01 X-21.2044 Y40.8533 
G01 X-21.0711 Y40.7642 
G01 X-20.9577 Y40.6508 
G01 X-20.9000 Y40.5643 
G01 X-18.1367 Y43.3277 
G01 X-18.1367 Y68.2232 
G01 X-24.0828 Y68.2232 
G01 X-24.1770 Y68.2232 
G01 X-24.2677 Y68.2475 
G01 X-24.3490 Y68.2945 
G01 X-24.9914 Y68.9370 
G01 X-25.0955 Y68.8328 
G01 X-25.2645 Y68.7100 
G01 X-25.4505 Y68.6152 
G01 X-25.6492 Y68.5507 
G01 X-25.8555 Y68.5180 
G01 X-26.0644 Y68.5180 
G01 X-26.2707 Y68.5507 
G01 X-26.4694 Y68.6152 
G01 X-26.6554 Y68.7100 
G01 X-26.8244 Y68.8328 
G01 X-26.9721 Y68.9805 
G01 X-27.0949 Y69.1495 
G01 X-27.1897 Y69.3355 
G01 X-27.2542 Y69.5342 
G01 X-27.2869 Y69.7405 
G01 X-27.2869 Y72.4994 
G01 X-27.2542 Y72.7057 
G01 X-27.1897 Y72.9044 
G01 X-27.0949 Y73.0904 
G01 X-26.9721 Y73.2594 
G01 X-26.8244 Y73.4071 
G01 X-26.6554 Y73.5299 
G01 X-26.4694 Y73.6247 
G01 X-26.3167 Y73.6742 
G01 X-26.3167 Y74.0722 
G01 X-26.8177 Y74.5732 
G01 X-43.0322 Y74.5732 
G01 X-45.3632 Y72.2422 
G01 X-45.3632 Y64.8170 
G01 X-45.3632 Y64.7229 
G01 X-45.3875 Y64.6322 
G01 X-45.4345 Y64.5509 
G01 X-46.7045 Y63.2809 
G01 X-46.7709 Y63.2145 
G01 X-46.8522 Y63.1675 
G01 X-46.9429 Y63.1432 
G01 X-48.0347 Y63.1432 
G01 X-48.0466 Y63.1144 
G01 X-48.1357 Y62.9811 
G01 X-48.2491 Y62.8677 
G01 X-48.3824 Y62.7786 
G01 X-48.5305 Y62.7173 
G01 X-48.6877 Y62.6860 
G01 X-50.3722 Y62.6860 
G01 X-50.5294 Y62.7173 
G01 X-50.6775 Y62.7786 
G01 X-50.8108 Y62.8677 
G01 X-50.9242 Y62.9811 
G01 X-51.0133 Y63.1144 
G01 X-51.0252 Y63.1432 
G01 X-53.2929 Y63.1432 
G01 X-53.3870 Y63.1432 
G01 X-53.4777 Y63.1675 
G01 X-53.5590 Y63.2145 
G01 X-64.9177 Y74.5732 
G01 X-73.5122 Y74.5732 
G01 X-74.5732 Y73.5122 
G01 X-74.5732 Y65.1267 
G01 X-71.9143 Y65.1267 
G01 X-71.4571 Y65.5839 
G01 X-70.7828 Y65.5839 
G01 X-70.3060 Y65.1071 
G01 X-70.3060 Y64.4328 
G01 X-70.7632 Y63.9756 
G01 X-70.7632 Y63.0243 
G01 X-70.3060 Y62.5671 
G01 X-70.3060 Y61.8928 
G01 X-70.7828 Y61.4160 
G01 X-71.4571 Y61.4160 
G01 X-71.9339 Y61.8928 
G01 X-71.9339 Y62.5671 
G01 X-71.4767 Y63.0243 
G01 X-71.4767 Y63.9756 
G01 X-71.9143 Y64.4132 
G01 X-74.5732 Y64.4132 
G01 X-74.5732 Y33.1677 
G01 X-73.3745 Y31.9690 
G01 X-73.3275 Y31.8877 
G01 X-73.3032 Y31.7970 
G01 X-73.3032 Y31.7029 
G01 X-73.3032 Y22.8687 
G01 X-73.2058 Y22.8037 
G01 X-73.1066 Y22.7045 
G01 X-73.0287 Y22.5878 
G01 X-72.9750 Y22.4582 
G01 X-72.9476 Y22.3206 
G00 Z2.0000  
G00 X-72.9476 Y13.2393 
G01 Z-0.1000 F250   
G01 X-72.9750 Y13.1017 F650   
G01 X-73.0287 Y12.9721 
G01 X-73.1066 Y12.8554 
G01 X-73.2058 Y12.7562 
G01 X-73.3225 Y12.6783 
G01 X-73.4521 Y12.6246 
G01 X-73.5897 Y12.5972 
G01 X-73.7302 Y12.5972 
G01 X-73.8678 Y12.6246 
G01 X-73.9974 Y12.6783 
G01 X-74.1141 Y12.7562 
G01 X-74.2133 Y12.8554 
G01 X-74.2912 Y12.9721 
G01 X-74.3449 Y13.1017 
G01 X-74.3723 Y13.2393 
G01 X-74.3723 Y14.7006 
G01 X-74.3449 Y14.8382 
G01 X-74.2912 Y14.9678 
G01 X-74.2133 Y15.0845 
G01 X-74.1141 Y15.1837 
G01 X-73.9974 Y15.2616 
G01 X-73.8678 Y15.3153 
G01 X-73.7302 Y15.3427 
G01 X-73.5897 Y15.3427 
G01 X-73.4521 Y15.3153 
G01 X-73.3225 Y15.2616 
G01 X-73.2058 Y15.1837 
G01 X-73.1066 Y15.0845 
G01 X-73.0839 Y15.0504 
G01 X-72.7467 Y15.3876 
G01 X-72.7467 Y40.4922 
G01 X-73.9454 Y41.6909 
G01 X-73.9924 Y41.7722 
G01 X-74.0167 Y41.8629 
G01 X-74.0167 Y41.9570 
G01 X-74.0167 Y55.9270 
G01 X-73.9924 Y56.0177 
G01 X-73.9454 Y56.0990 
G01 X-73.8790 Y56.1654 
G01 X-72.6090 Y57.4354 
G01 X-72.5277 Y57.4824 
G01 X-72.4370 Y57.5067 
G01 X-72.3429 Y57.5067 
G01 X-71.9143 Y57.5067 
G01 X-71.4767 Y57.9443 
G01 X-71.4767 Y58.8956 
G01 X-71.9339 Y59.3528 
G01 X-71.9339 Y60.0271 
G01 X-71.4571 Y60.5039 
G01 X-70.7828 Y60.5039 
G01 X-70.3060 Y60.0271 
G01 X-70.3060 Y59.3528 
G01 X-70.7632 Y58.8956 
G01 X-70.7632 Y57.9443 
G01 X-70.3060 Y57.4871 
G01 X-70.3060 Y56.8128 
G01 X-70.7828 Y56.3360 
G01 X-71.4571 Y56.3360 
G01 X-71.9143 Y56.7932 
G01 X-72.2422 Y56.7932 
G01 X-73.3032 Y55.7322 
G01 X-73.3032 Y42.1651 
G01 X-60.0467 Y42.1651 
G01 X-60.0467 Y53.3870 
G01 X-60.0224 Y53.4777 
G01 X-59.9754 Y53.5590 
G01 X-59.9090 Y53.6254 
G01 X-56.0990 Y57.4354 
G01 X-56.0177 Y57.4824 
G01 X-55.9270 Y57.5067 
G01 X-55.8329 Y57.5067 
G01 X-43.1329 Y57.5067 
G01 X-43.0422 Y57.4824 
G01 X-42.9609 Y57.4354 
G01 X-42.8945 Y57.3690 
G01 X-41.7622 Y56.2367 
G01 X-35.7852 Y56.2367 
G01 X-35.7733 Y56.2655 
G01 X-35.6842 Y56.3988 
G01 X-35.5708 Y56.5122 
G01 X-35.4375 Y56.6013 
G01 X-35.2894 Y56.6626 
G01 X-35.1322 Y56.6939 
G01 X-33.4477 Y56.6939 
G01 X-33.2905 Y56.6626 
G01 X-33.1424 Y56.6013 
G01 X-33.0091 Y56.5122 
G01 X-32.8957 Y56.3988 
G01 X-32.8066 Y56.2655 
G01 X-32.7947 Y56.2367 
G01 X-31.8977 Y56.2367 
G01 X-29.5667 Y58.5677 
G01 X-29.5667 Y64.6222 
G01 X-30.2054 Y65.2609 
G01 X-30.2524 Y65.3422 
G01 X-30.2767 Y65.4329 
G01 X-30.2767 Y65.5270 
G01 X-30.2767 Y68.5657 
G01 X-30.4294 Y68.6152 
G01 X-30.6154 Y68.7100 
G01 X-30.7844 Y68.8328 
G01 X-30.9321 Y68.9805 
G01 X-31.0549 Y69.1495 
G01 X-31.1497 Y69.3355 
G01 X-31.2142 Y69.5342 
G01 X-31.2469 Y69.7405 
G01 X-31.2469 Y72.4994 
G01 X-31.2142 Y72.7057 
G01 X-31.1497 Y72.9044 
G01 X-31.0549 Y73.0904 
G01 X-30.9321 Y73.2594 
G01 X-30.7844 Y73.4071 
G01 X-30.6154 Y73.5299 
G01 X-30.4294 Y73.6247 
G01 X-30.2307 Y73.6892 
G01 X-30.0244 Y73.7219 
G01 X-29.8155 Y73.7219 
G01 X-29.6092 Y73.6892 
G01 X-29.4105 Y73.6247 
G01 X-29.2245 Y73.5299 
G01 X-29.0555 Y73.4071 
G01 X-28.9078 Y73.2594 
G01 X-28.7850 Y73.0904 
G01 X-28.6902 Y72.9044 
G01 X-28.6257 Y72.7057 
G01 X-28.5930 Y72.4994 
G01 X-28.5930 Y69.7405 
G01 X-28.6257 Y69.5342 
G01 X-28.6902 Y69.3355 
G01 X-28.7850 Y69.1495 
G01 X-28.9078 Y68.9805 
G01 X-29.0555 Y68.8328 
G01 X-29.2245 Y68.7100 
G01 X-29.4105 Y68.6152 
G01 X-29.5632 Y68.5657 
G01 X-29.5632 Y65.6277 
G01 X-29.0622 Y65.1267 
G01 X-20.3670 Y65.1267 
G01 X-20.2729 Y65.1267 
G01 X-20.1822 Y65.1024 
G01 X-20.1009 Y65.0554 
G01 X-20.0345 Y64.9890 
G01 X-19.9875 Y64.9077 
G01 X-19.9632 Y64.8170 
G01 X-19.9632 Y61.1852 
G01 X-19.9344 Y61.1733 
G01 X-19.8011 Y61.0842 
G01 X-19.6877 Y60.9708 
G01 X-19.5986 Y60.8375 
G01 X-19.5373 Y60.6894 
G01 X-19.5060 Y60.5322 
G01 X-19.5060 Y58.8477 
G01 X-19.5373 Y58.6905 
G01 X-19.5986 Y58.5424 
G01 X-19.6877 Y58.4091 
G01 X-19.8011 Y58.2957 
G01 X-19.9344 Y58.2066 
G01 X-19.9632 Y58.1947 
G01 X-19.9632 Y56.1052 
G01 X-19.9344 Y56.0933 
G01 X-19.8011 Y56.0042 
G01 X-19.6877 Y55.8908 
G01 X-19.5986 Y55.7575 
G01 X-19.5373 Y55.6094 
G01 X-19.5060 Y55.4522 
G01 X-19.5060 Y53.7677 
G01 X-19.5373 Y53.6105 
G01 X-19.5986 Y53.4624 
G01 X-19.6877 Y53.3291 
G01 X-19.8011 Y53.2157 
G01 X-19.9344 Y53.1266 
G01 X-19.9632 Y53.1147 
G01 X-19.9632 Y51.0252 
G01 X-19.9344 Y51.0133 
G01 X-19.8011 Y50.9242 
G01 X-19.6877 Y50.8108 
G01 X-19.5986 Y50.6775 
G01 X-19.5373 Y50.5294 
G01 X-19.5060 Y50.3722 
G01 X-19.5060 Y48.6877 
G01 X-19.5373 Y48.5305 
G01 X-19.5986 Y48.3824 
G01 X-19.6877 Y48.2491 
G01 X-19.8011 Y48.1357 
G01 X-19.9344 Y48.0466 
G01 X-19.9632 Y48.0347 
G01 X-19.9632 Y46.9429 
G01 X-19.9875 Y46.8522 
G01 X-20.0345 Y46.7709 
G01 X-20.1009 Y46.7045 
G01 X-25.0432 Y41.7622 
G01 X-25.0432 Y35.9167 
G01 X-22.8129 Y35.9167 
G01 X-22.7222 Y35.8924 
G01 X-22.6409 Y35.8454 
G01 X-22.5745 Y35.7790 
G01 X-18.7645 Y31.9690 
G01 X-18.7175 Y31.8877 
G01 X-18.6932 Y31.7970 
G01 X-18.6932 Y31.7029 
G01 X-18.6932 Y17.7329 
G01 X-18.7175 Y17.6422 
G01 X-18.7645 Y17.5609 
G01 X-18.8309 Y17.4945 
G01 X-20.1009 Y16.2245 
G01 X-20.1822 Y16.1775 
G01 X-20.2729 Y16.1532 
G01 X-20.3670 Y16.1532 
G01 X-21.3647 Y16.1532 
G01 X-21.3766 Y16.1244 
G01 X-21.4657 Y15.9911 
G01 X-21.5791 Y15.8777 
G01 X-21.7124 Y15.7886 
G01 X-21.8605 Y15.7273 
G01 X-22.0177 Y15.6960 
G01 X-23.7022 Y15.6960 
G01 X-23.8594 Y15.7273 
G01 X-24.0075 Y15.7886 
G01 X-24.1408 Y15.8777 
G01 X-24.2542 Y15.9911 
G01 X-24.3433 Y16.1244 
G01 X-24.4046 Y16.2725 
G01 X-24.4359 Y16.4297 
G01 X-24.4359 Y16.5902 
G01 X-24.4046 Y16.7474 
G01 X-24.3433 Y16.8955 
G01 X-24.2542 Y17.0288 
G01 X-24.1408 Y17.1422 
G01 X-24.0075 Y17.2313 
G01 X-23.8594 Y17.2926 
G01 X-23.7022 Y17.3239 
G01 X-22.0177 Y17.3239 
G01 X-21.8605 Y17.2926 
G01 X-21.7124 Y17.2313 
G01 X-21.5791 Y17.1422 
G01 X-21.4657 Y17.0288 
G01 X-21.3766 Y16.8955 
G01 X-21.3647 Y16.8667 
G01 X-20.4677 Y16.8667 
G01 X-19.4067 Y17.9277 
G01 X-19.4067 Y31.6022 
G01 X-23.0077 Y35.2032 
G01 X-25.3529 Y35.2032 
G01 X-25.4470 Y35.2032 
G01 X-25.5377 Y35.2275 
G01 X-25.6190 Y35.2745 
G01 X-25.6854 Y35.3409 
G01 X-25.7324 Y35.4222 
G01 X-25.7567 Y35.5129 
G01 X-25.7567 Y41.8629 
G01 X-25.7567 Y41.9570 
G01 X-25.7324 Y42.0477 
G01 X-25.6854 Y42.1290 
G01 X-20.6767 Y47.1377 
G01 X-20.6767 Y48.0347 
G01 X-20.7055 Y48.0466 
G01 X-20.8388 Y48.1357 
G01 X-20.9522 Y48.2491 
G01 X-21.0413 Y48.3824 
G01 X-21.1026 Y48.5305 
G01 X-21.1339 Y48.6877 
G01 X-21.1339 Y50.3722 
G01 X-21.1026 Y50.5294 
G01 X-21.0413 Y50.6775 
G01 X-20.9522 Y50.8108 
G01 X-20.8388 Y50.9242 
G01 X-20.7055 Y51.0133 
G01 X-20.6767 Y51.0252 
G01 X-20.6767 Y53.1147 
G01 X-20.7055 Y53.1266 
G01 X-20.8388 Y53.2157 
G01 X-20.9522 Y53.3291 
G01 X-21.0413 Y53.4624 
G01 X-21.1026 Y53.6105 
G01 X-21.1339 Y53.7677 
G01 X-21.1339 Y55.4522 
G01 X-21.1026 Y55.6094 
G01 X-21.0413 Y55.7575 
G01 X-20.9522 Y55.8908 
G01 X-20.8388 Y56.0042 
G01 X-20.7055 Y56.0933 
G01 X-20.6767 Y56.1052 
G01 X-20.6767 Y58.1947 
G01 X-20.7055 Y58.2066 
G01 X-20.8388 Y58.2957 
G01 X-20.9522 Y58.4091 
G01 X-21.0413 Y58.5424 
G01 X-21.1026 Y58.6905 
G01 X-21.1339 Y58.8477 
G01 X-21.1339 Y60.5322 
G01 X-21.1026 Y60.6894 
G01 X-21.0413 Y60.8375 
G01 X-20.9522 Y60.9708 
G01 X-20.8388 Y61.0842 
G01 X-20.7055 Y61.1733 
G01 X-20.6767 Y61.1852 
G01 X-20.6767 Y64.4132 
G01 X-28.8532 Y64.4132 
G01 X-28.8532 Y58.3729 
G01 X-28.8775 Y58.2822 
G01 X-28.9245 Y58.2009 
G01 X-28.9909 Y58.1345 
G01 X-31.5309 Y55.5945 
G01 X-31.6122 Y55.5475 
G01 X-31.7029 Y55.5232 
G01 X-31.7970 Y55.5232 
G01 X-32.7947 Y55.5232 
G01 X-32.8066 Y55.4944 
G01 X-32.8957 Y55.3611 
G01 X-33.0091 Y55.2477 
G01 X-33.1424 Y55.1586 
G01 X-33.2905 Y55.0973 
G01 X-33.4477 Y55.0660 
G01 X-35.1322 Y55.0660 
G01 X-35.2894 Y55.0973 
G01 X-35.4375 Y55.1586 
G01 X-35.5708 Y55.2477 
G01 X-35.6842 Y55.3611 
G01 X-35.7733 Y55.4944 
G01 X-35.7852 Y55.5232 
G01 X-41.8628 Y55.5232 
G01 X-41.9570 Y55.5232 
G01 X-42.0477 Y55.5475 
G01 X-42.1290 Y55.5945 
G01 X-43.3277 Y56.7932 
G01 X-55.7322 Y56.7932 
G01 X-59.3332 Y53.1922 
G01 X-59.3332 Y41.9570 
G01 X-59.3332 Y38.9139 
G01 X-58.8477 Y38.9139 
G01 X-58.6905 Y38.8826 
G01 X-58.5424 Y38.8213 
G01 X-58.4091 Y38.7322 
G01 X-58.2957 Y38.6188 
G01 X-58.2066 Y38.4855 
G01 X-58.1453 Y38.3374 
G01 X-58.1140 Y38.1802 
G01 X-58.1140 Y38.0197 
G01 X-58.1453 Y37.8625 
G01 X-58.2066 Y37.7144 
G01 X-58.2957 Y37.5811 
G01 X-58.4091 Y37.4677 
G01 X-58.5424 Y37.3786 
G01 X-58.6905 Y37.3173 
G01 X-58.8477 Y37.2860 
G01 X-60.5322 Y37.2860 
G01 X-60.6894 Y37.3173 
G01 X-60.8375 Y37.3786 
G01 X-60.9708 Y37.4677 
G01 X-61.0842 Y37.5811 
G01 X-61.1733 Y37.7144 
G01 X-61.2346 Y37.8625 
G01 X-61.2659 Y38.0197 
G01 X-61.2659 Y38.1802 
G01 X-61.2346 Y38.3374 
G01 X-61.1733 Y38.4855 
G01 X-61.0842 Y38.6188 
G01 X-60.9708 Y38.7322 
G01 X-60.8375 Y38.8213 
G01 X-60.6894 Y38.8826 
G01 X-60.5322 Y38.9139 
G01 X-60.0467 Y38.9139 
G01 X-60.0467 Y41.6548 
G01 X-72.9004 Y41.6548 
G01 X-72.1709 Y40.9254 
G01 X-72.1045 Y40.8590 
G01 X-72.0575 Y40.7777 
G01 X-72.0332 Y40.6870 
G01 X-72.0332 Y15.1929 
G01 X-72.0575 Y15.1022 
G01 X-72.1045 Y15.0209 
G01 X-72.1709 Y14.9545 
G01 X-72.9476 Y14.1779 
G01 X-72.9476 Y13.2393 
G00 Z2.0000  
G00 X-62.7876 Y14.7006 
G01 Z-0.1000 F250   
G01 X-62.7876 Y13.2393 F650   
G01 X-62.8150 Y13.1017 
G01 X-62.8687 Y12.9721 
G01 X-62.9466 Y12.8554 
G01 X-63.0458 Y12.7562 
G01 X-63.1625 Y12.6783 
G01 X-63.2921 Y12.6246 
G01 X-63.4297 Y12.5972 
G01 X-63.5702 Y12.5972 
G01 X-63.7078 Y12.6246 
G01 X-63.8374 Y12.6783 
G01 X-63.9541 Y12.7562 
G01 X-64.0533 Y12.8554 
G01 X-64.1312 Y12.9721 
G01 X-64.1849 Y13.1017 
G01 X-64.2123 Y13.2393 
G01 X-64.2123 Y14.7006 
G01 X-64.1849 Y14.8382 
G01 X-64.1312 Y14.9678 
G01 X-64.0533 Y15.0845 
G01 X-63.9541 Y15.1837 
G01 X-63.8374 Y15.2616 
G01 X-63.7078 Y15.3153 
G01 X-63.5702 Y15.3427 
G01 X-63.4297 Y15.3427 
G01 X-63.2921 Y15.3153 
G01 X-63.1625 Y15.2616 
G01 X-63.0458 Y15.1837 
G01 X-62.9466 Y15.0845 
G01 X-62.8687 Y14.9678 
G01 X-62.8150 Y14.8382 
G01 X-62.7876 Y14.7006 
G00 Z2.0000  
G00 X-65.3276 Y14.7006 
G01 Z-0.1000 F250   
G01 X-65.3276 Y13.2393 F650   
G01 X-65.3550 Y13.1017 
G01 X-65.4087 Y12.9721 
G01 X-65.4866 Y12.8554 
G01 X-65.5858 Y12.7562 
G01 X-65.7025 Y12.6783 
G01 X-65.8321 Y12.6246 
G01 X-65.9697 Y12.5972 
G01 X-66.1102 Y12.5972 
G01 X-66.2478 Y12.6246 
G01 X-66.3774 Y12.6783 
G01 X-66.4941 Y12.7562 
G01 X-66.5933 Y12.8554 
G01 X-66.6712 Y12.9721 
G01 X-66.7249 Y13.1017 
G01 X-66.7523 Y13.2393 
G01 X-66.7523 Y14.7006 
G01 X-66.7249 Y14.8382 
G01 X-66.6712 Y14.9678 
G01 X-66.5933 Y15.0845 
G01 X-66.4941 Y15.1837 
G01 X-66.3774 Y15.2616 
G01 X-66.2478 Y15.3153 
G01 X-66.1102 Y15.3427 
G01 X-65.9697 Y15.3427 
G01 X-65.8321 Y15.3153 
G01 X-65.7025 Y15.2616 
G01 X-65.5858 Y15.1837 
G01 X-65.4866 Y15.0845 
G01 X-65.4087 Y14.9678 
G01 X-65.3550 Y14.8382 
G01 X-65.3276 Y14.7006 
G00 Z2.0000  
G00 X-60.2476 Y14.7006 
G01 Z-0.1000 F250   
G01 X-60.2476 Y13.2393 F650   
G01 X-60.2750 Y13.1017 
G01 X-60.3287 Y12.9721 
G01 X-60.4066 Y12.8554 
G01 X-60.5058 Y12.7562 
G01 X-60.6225 Y12.6783 
G01 X-60.7521 Y12.6246 
G01 X-60.8897 Y12.5972 
G01 X-61.0302 Y12.5972 
G01 X-61.1678 Y12.6246 
G01 X-61.2974 Y12.6783 
G01 X-61.4141 Y12.7562 
G01 X-61.5133 Y12.8554 
G01 X-61.5912 Y12.9721 
G01 X-61.6449 Y13.1017 
G01 X-61.6723 Y13.2393 
G01 X-61.6723 Y14.7006 
G01 X-61.6449 Y14.8382 
G01 X-61.5912 Y14.9678 
G01 X-61.5133 Y15.0845 
G01 X-61.4141 Y15.1837 
G01 X-61.2974 Y15.2616 
G01 X-61.1678 Y15.3153 
G01 X-61.0302 Y15.3427 
G01 X-60.8897 Y15.3427 
G01 X-60.7521 Y15.3153 
G01 X-60.6225 Y15.2616 
G01 X-60.5058 Y15.1837 
G01 X-60.4066 Y15.0845 
G01 X-60.3287 Y14.9678 
G01 X-60.2750 Y14.8382 
G01 X-60.2476 Y14.7006 
G00 Z2.0000  
G00 X-57.7076 Y14.7006 
G01 Z-0.1000 F250   
G01 X-57.7076 Y13.2393 F650   
G01 X-57.7350 Y13.1017 
G01 X-57.7887 Y12.9721 
G01 X-57.8666 Y12.8554 
G01 X-57.9658 Y12.7562 
G01 X-58.0825 Y12.6783 
G01 X-58.2121 Y12.6246 
G01 X-58.3497 Y12.5972 
G01 X-58.4902 Y12.5972 
G01 X-58.6278 Y12.6246 
G01 X-58.7574 Y12.6783 
G01 X-58.8741 Y12.7562 
G01 X-58.9733 Y12.8554 
G01 X-59.0512 Y12.9721 
G01 X-59.1049 Y13.1017 
G01 X-59.1323 Y13.2393 
G01 X-59.1323 Y14.7006 
G01 X-59.1049 Y14.8382 
G01 X-59.0512 Y14.9678 
G01 X-58.9733 Y15.0845 
G01 X-58.8741 Y15.1837 
G01 X-58.7574 Y15.2616 
G01 X-58.6278 Y15.3153 
G01 X-58.4902 Y15.3427 
G01 X-58.3497 Y15.3427 
G01 X-58.2121 Y15.3153 
G01 X-58.0825 Y15.2616 
G01 X-57.9658 Y15.1837 
G01 X-57.8666 Y15.0845 
G01 X-57.7887 Y14.9678 
G01 X-57.7350 Y14.8382 
G01 X-57.7076 Y14.7006 
G00 Z2.0000  
G00 X-70.4076 Y14.7006 
G01 Z-0.1000 F250   
G01 X-70.4076 Y13.2393 F650   
G01 X-70.4350 Y13.1017 
G01 X-70.4887 Y12.9721 
G01 X-70.5666 Y12.8554 
G01 X-70.6658 Y12.7562 
G01 X-70.7825 Y12.6783 
G01 X-70.9121 Y12.6246 
G01 X-71.0497 Y12.5972 
G01 X-71.1902 Y12.5972 
G01 X-71.3278 Y12.6246 
G01 X-71.4574 Y12.6783 
G01 X-71.5741 Y12.7562 
G01 X-71.6733 Y12.8554 
G01 X-71.7512 Y12.9721 
G01 X-71.8049 Y13.1017 
G01 X-71.8323 Y13.2393 
G01 X-71.8323 Y14.7006 
G01 X-71.8049 Y14.8382 
G01 X-71.7512 Y14.9678 
G01 X-71.6733 Y15.0845 
G01 X-71.5741 Y15.1837 
G01 X-71.4574 Y15.2616 
G01 X-71.3278 Y15.3153 
G01 X-71.1902 Y15.3427 
G01 X-71.0497 Y15.3427 
G01 X-70.9121 Y15.3153 
G01 X-70.7825 Y15.2616 
G01 X-70.6658 Y15.1837 
G01 X-70.5666 Y15.0845 
G01 X-70.4887 Y14.9678 
G01 X-70.4350 Y14.8382 
G01 X-70.4076 Y14.7006 
G00 Z2.0000  
G00 X-67.8676 Y14.7006 
G01 Z-0.1000 F250   
G01 X-67.8676 Y13.2393 F650   
G01 X-67.8950 Y13.1017 
G01 X-67.9487 Y12.9721 
G01 X-68.0266 Y12.8554 
G01 X-68.1258 Y12.7562 
G01 X-68.2425 Y12.6783 
G01 X-68.3721 Y12.6246 
G01 X-68.5097 Y12.5972 
G01 X-68.6502 Y12.5972 
G01 X-68.7878 Y12.6246 
G01 X-68.9174 Y12.6783 
G01 X-69.0341 Y12.7562 
G01 X-69.1333 Y12.8554 
G01 X-69.2112 Y12.9721 
G01 X-69.2649 Y13.1017 
G01 X-69.2923 Y13.2393 
G01 X-69.2923 Y14.7006 
G01 X-69.2649 Y14.8382 
G01 X-69.2112 Y14.9678 
G01 X-69.1333 Y15.0845 
G01 X-69.0341 Y15.1837 
G01 X-68.9174 Y15.2616 
G01 X-68.7878 Y15.3153 
G01 X-68.6502 Y15.3427 
G01 X-68.5097 Y15.3427 
G01 X-68.3721 Y15.3153 
G01 X-68.2425 Y15.2616 
G01 X-68.1258 Y15.1837 
G01 X-68.0266 Y15.0845 
G01 X-67.9487 Y14.9678 
G01 X-67.8950 Y14.8382 
G01 X-67.8676 Y14.7006 
G00 Z2.0000  
G00 X-55.1676 Y14.7006 
G01 Z-0.1000 F250   
G01 X-55.1676 Y13.2393 F650   
G01 X-55.1950 Y13.1017 
G01 X-55.2487 Y12.9721 
G01 X-55.3266 Y12.8554 
G01 X-55.4258 Y12.7562 
G01 X-55.5425 Y12.6783 
G01 X-55.6721 Y12.6246 
G01 X-55.8097 Y12.5972 
G01 X-55.9502 Y12.5972 
G01 X-56.0878 Y12.6246 
G01 X-56.2174 Y12.6783 
G01 X-56.3341 Y12.7562 
G01 X-56.4333 Y12.8554 
G01 X-56.5112 Y12.9721 
G01 X-56.5649 Y13.1017 
G01 X-56.5923 Y13.2393 
G01 X-56.5923 Y14.7006 
G01 X-56.5649 Y14.8382 
G01 X-56.5112 Y14.9678 
G01 X-56.4333 Y15.0845 
G01 X-56.3341 Y15.1837 
G01 X-56.2174 Y15.2616 
G01 X-56.0878 Y15.3153 
G01 X-55.9502 Y15.3427 
G01 X-55.8097 Y15.3427 
G01 X-55.6721 Y15.3153 
G01 X-55.5425 Y15.2616 
G01 X-55.4258 Y15.1837 
G01 X-55.3266 Y15.0845 
G01 X-55.2487 Y14.9678 
G01 X-55.1950 Y14.8382 
G01 X-55.1676 Y14.7006 
G00 Z2.0000  
G00 X-22.0177 Y28.3960 
G01 Z-0.1000 F250   
G01 X-23.7022 Y28.3960 F650   
G01 X-23.8594 Y28.4273 
G01 X-24.0075 Y28.4886 
G01 X-24.1408 Y28.5777 
G01 X-24.2542 Y28.6911 
G01 X-24.3433 Y28.8244 
G01 X-24.4046 Y28.9725 
G01 X-24.4065 Y28.9820 
G01 X-28.0877 Y32.6632 
G01 X-30.4329 Y32.6632 
G01 X-30.5270 Y32.6632 
G01 X-30.6177 Y32.6875 
G01 X-30.6990 Y32.7345 
G01 X-30.7654 Y32.8009 
G01 X-30.8124 Y32.8822 
G01 X-30.8367 Y32.9729 
G01 X-30.8367 Y40.2832 
G01 X-32.7947 Y40.2832 
G01 X-32.8066 Y40.2544 
G01 X-32.8957 Y40.1211 
G01 X-33.0091 Y40.0077 
G01 X-33.1424 Y39.9186 
G01 X-33.2905 Y39.8573 
G01 X-33.4477 Y39.8260 
G01 X-35.1322 Y39.8260 
G01 X-35.2894 Y39.8573 
G01 X-35.4375 Y39.9186 
G01 X-35.5708 Y40.0077 
G01 X-35.6842 Y40.1211 
G01 X-35.7733 Y40.2544 
G01 X-35.8346 Y40.4025 
G01 X-35.8659 Y40.5597 
G01 X-35.8659 Y40.7202 
G01 X-35.8346 Y40.8774 
G01 X-35.7733 Y41.0255 
G01 X-35.6842 Y41.1588 
G01 X-35.5708 Y41.2722 
G01 X-35.4375 Y41.3613 
G01 X-35.2894 Y41.4226 
G01 X-35.1322 Y41.4539 
G01 X-33.4477 Y41.4539 
G01 X-33.2905 Y41.4226 
G01 X-33.1424 Y41.3613 
G01 X-33.0091 Y41.2722 
G01 X-32.8957 Y41.1588 
G01 X-32.8066 Y41.0255 
G01 X-32.7947 Y40.9967 
G01 X-30.4329 Y40.9967 
G01 X-30.3422 Y40.9724 
G01 X-30.2609 Y40.9254 
G01 X-30.1945 Y40.8590 
G01 X-30.1475 Y40.7777 
G01 X-30.1232 Y40.6870 
G01 X-30.1232 Y40.5929 
G01 X-30.1232 Y33.3767 
G01 X-27.8929 Y33.3767 
G01 X-27.8022 Y33.3524 
G01 X-27.7209 Y33.3054 
G01 X-27.6545 Y33.2390 
G01 X-24.1993 Y29.7837 
G01 X-24.1408 Y29.8422 
G01 X-24.0075 Y29.9313 
G01 X-23.8594 Y29.9926 
G01 X-23.7022 Y30.0239 
G01 X-22.0177 Y30.0239 
G01 X-21.8605 Y29.9926 
G01 X-21.7124 Y29.9313 
G01 X-21.5791 Y29.8422 
G01 X-21.4657 Y29.7288 
G01 X-21.3766 Y29.5955 
G01 X-21.3153 Y29.4474 
G01 X-21.2840 Y29.2902 
G01 X-21.2840 Y29.1297 
G01 X-21.3153 Y28.9725 
G01 X-21.3766 Y28.8244 
G01 X-21.4657 Y28.6911 
G01 X-21.5791 Y28.5777 
G01 X-21.7124 Y28.4886 
G01 X-21.8605 Y28.4273 
G01 X-22.0177 Y28.3960 
G00 Z2.0000  
G00 X-22.0177 Y23.3160 
G01 Z-0.1000 F250   
G01 X-23.7022 Y23.3160 F650   
G01 X-23.8594 Y23.3473 
G01 X-24.0075 Y23.4086 
G01 X-24.1408 Y23.4977 
G01 X-24.2542 Y23.6111 
G01 X-24.3433 Y23.7444 
G01 X-24.3552 Y23.7732 
G01 X-39.3229 Y23.7732 
G01 X-39.4170 Y23.7732 
G01 X-39.5077 Y23.7975 
G01 X-39.5890 Y23.8445 
G01 X-40.8590 Y25.1145 
G01 X-40.9254 Y25.1809 
G01 X-40.9724 Y25.2622 
G01 X-40.9967 Y25.3529 
G01 X-40.9967 Y27.8929 
G01 X-40.9967 Y27.9870 
G01 X-40.9724 Y28.0777 
G01 X-40.9254 Y28.1590 
G01 X-38.3854 Y30.6990 
G01 X-38.3190 Y30.7654 
G01 X-38.2377 Y30.8124 
G01 X-38.1470 Y30.8367 
G01 X-35.7852 Y30.8367 
G01 X-35.7733 Y30.8655 
G01 X-35.6842 Y30.9988 
G01 X-35.5708 Y31.1122 
G01 X-35.4375 Y31.2013 
G01 X-35.2894 Y31.2626 
G01 X-35.1322 Y31.2939 
G01 X-33.4477 Y31.2939 
G01 X-33.2905 Y31.2626 
G01 X-33.1424 Y31.2013 
G01 X-33.0091 Y31.1122 
G01 X-32.8957 Y30.9988 
G01 X-32.8066 Y30.8655 
G01 X-32.7453 Y30.7174 
G01 X-32.7140 Y30.5602 
G01 X-32.7140 Y30.3997 
G01 X-32.7453 Y30.2425 
G01 X-32.8066 Y30.0944 
G01 X-32.8957 Y29.9611 
G01 X-33.0091 Y29.8477 
G01 X-33.1424 Y29.7586 
G01 X-33.2905 Y29.6973 
G01 X-33.4477 Y29.6660 
G01 X-35.1322 Y29.6660 
G01 X-35.2894 Y29.6973 
G01 X-35.4375 Y29.7586 
G01 X-35.5708 Y29.8477 
G01 X-35.6842 Y29.9611 
G01 X-35.7733 Y30.0944 
G01 X-35.7852 Y30.1232 
G01 X-37.9522 Y30.1232 
G01 X-40.2832 Y27.7922 
G01 X-40.2832 Y25.5477 
G01 X-39.2222 Y24.4867 
G01 X-24.3552 Y24.4867 
G01 X-24.3433 Y24.5155 
G01 X-24.2542 Y24.6488 
G01 X-24.1408 Y24.7622 
G01 X-24.0075 Y24.8513 
G01 X-23.8594 Y24.9126 
G01 X-23.7022 Y24.9439 
G01 X-22.0177 Y24.9439 
G01 X-21.8605 Y24.9126 
G01 X-21.7124 Y24.8513 
G01 X-21.5791 Y24.7622 
G01 X-21.4657 Y24.6488 
G01 X-21.3766 Y24.5155 
G01 X-21.3153 Y24.3674 
G01 X-21.2840 Y24.2102 
G01 X-21.2840 Y24.0497 
G01 X-21.3153 Y23.8925 
G01 X-21.3766 Y23.7444 
G01 X-21.4657 Y23.6111 
G01 X-21.5791 Y23.4977 
G01 X-21.7124 Y23.4086 
G01 X-21.8605 Y23.3473 
G01 X-22.0177 Y23.3160 
G00 Z2.0000  
G00 X-22.0177 Y18.2360 
G01 Z-0.1000 F250   
G01 X-23.7022 Y18.2360 F650   
G01 X-23.8594 Y18.2673 
G01 X-24.0075 Y18.3286 
G01 X-24.1408 Y18.4177 
G01 X-24.2542 Y18.5311 
G01 X-24.3433 Y18.6644 
G01 X-24.3552 Y18.6932 
G01 X-43.1329 Y18.6932 
G01 X-43.2270 Y18.6932 
G01 X-43.3177 Y18.7175 
G01 X-43.3990 Y18.7645 
G01 X-45.9390 Y21.3045 
G01 X-46.0054 Y21.3709 
G01 X-46.0524 Y21.4522 
G01 X-46.0767 Y21.5429 
G01 X-46.0767 Y30.4329 
G01 X-46.0767 Y30.5270 
G01 X-46.0524 Y30.6177 
G01 X-46.0054 Y30.6990 
G01 X-40.9254 Y35.7790 
G01 X-40.8590 Y35.8454 
G01 X-40.7777 Y35.8924 
G01 X-40.6870 Y35.9167 
G01 X-35.7852 Y35.9167 
G01 X-35.7733 Y35.9455 
G01 X-35.6842 Y36.0788 
G01 X-35.5708 Y36.1922 
G01 X-35.4375 Y36.2813 
G01 X-35.2894 Y36.3426 
G01 X-35.1322 Y36.3739 
G01 X-33.4477 Y36.3739 
G01 X-33.2905 Y36.3426 
G01 X-33.1424 Y36.2813 
G01 X-33.0091 Y36.1922 
G01 X-32.8957 Y36.0788 
G01 X-32.8066 Y35.9455 
G01 X-32.7453 Y35.7974 
G01 X-32.7140 Y35.6402 
G01 X-32.7140 Y35.4797 
G01 X-32.7453 Y35.3225 
G01 X-32.8066 Y35.1744 
G01 X-32.8957 Y35.0411 
G01 X-33.0091 Y34.9277 
G01 X-33.1424 Y34.8386 
G01 X-33.2905 Y34.7773 
G01 X-33.4477 Y34.7460 
G01 X-35.1322 Y34.7460 
G01 X-35.2894 Y34.7773 
G01 X-35.4375 Y34.8386 
G01 X-35.5708 Y34.9277 
G01 X-35.6842 Y35.0411 
G01 X-35.7733 Y35.1744 
G01 X-35.7852 Y35.2032 
G01 X-40.4922 Y35.2032 
G01 X-45.3632 Y30.3322 
G01 X-45.3632 Y21.7377 
G01 X-43.0322 Y19.4067 
G01 X-24.3552 Y19.4067 
G01 X-24.3433 Y19.4355 
G01 X-24.2542 Y19.5688 
G01 X-24.1408 Y19.6822 
G01 X-24.0075 Y19.7713 
G01 X-23.8594 Y19.8326 
G01 X-23.7022 Y19.8639 
G01 X-22.0177 Y19.8639 
G01 X-21.8605 Y19.8326 
G01 X-21.7124 Y19.7713 
G01 X-21.5791 Y19.6822 
G01 X-21.4657 Y19.5688 
G01 X-21.3766 Y19.4355 
G01 X-21.3153 Y19.2874 
G01 X-21.2840 Y19.1302 
G01 X-21.2840 Y18.9697 
G01 X-21.3153 Y18.8125 
G01 X-21.3766 Y18.6644 
G01 X-21.4657 Y18.5311 
G01 X-21.5791 Y18.4177 
G01 X-21.7124 Y18.3286 
G01 X-21.8605 Y18.2673 
G01 X-22.0177 Y18.2360 
G00 Z2.0000  
G00 X-60.5322 Y31.2939 
G01 Z-0.1000 F250   
G01 X-58.8477 Y31.2939 F650   
G01 X-58.6905 Y31.2626 
G01 X-58.5424 Y31.2013 
G01 X-58.4091 Y31.1122 
G01 X-58.3506 Y31.0537 
G01 X-53.6967 Y35.7077 
G01 X-53.6967 Y44.4029 
G01 X-53.6967 Y44.4970 
G01 X-53.6724 Y44.5877 
G01 X-53.6254 Y44.6690 
G01 X-52.3554 Y45.9390 
G01 X-52.2890 Y46.0054 
G01 X-52.2077 Y46.0524 
G01 X-52.1170 Y46.0767 
G01 X-51.0252 Y46.0767 
G01 X-51.0133 Y46.1055 
G01 X-50.9242 Y46.2388 
G01 X-50.8108 Y46.3522 
G01 X-50.6775 Y46.4413 
G01 X-50.5294 Y46.5026 
G01 X-50.3722 Y46.5339 
G01 X-48.6877 Y46.5339 
G01 X-48.5305 Y46.5026 
G01 X-48.3824 Y46.4413 
G01 X-48.2491 Y46.3522 
G01 X-48.1357 Y46.2388 
G01 X-48.0466 Y46.1055 
G01 X-47.9853 Y45.9574 
G01 X-47.9540 Y45.8002 
G01 X-47.9540 Y45.6397 
G01 X-47.9853 Y45.4825 
G01 X-48.0466 Y45.3344 
G01 X-48.1357 Y45.2011 
G01 X-48.2491 Y45.0877 
G01 X-48.3824 Y44.9986 
G01 X-48.5305 Y44.9373 
G01 X-48.6877 Y44.9060 
G01 X-50.3722 Y44.9060 
G01 X-50.5294 Y44.9373 
G01 X-50.6775 Y44.9986 
G01 X-50.8108 Y45.0877 
G01 X-50.9242 Y45.2011 
G01 X-51.0133 Y45.3344 
G01 X-51.0252 Y45.3632 
G01 X-51.9222 Y45.3632 
G01 X-52.9832 Y44.3022 
G01 X-52.9832 Y35.5129 
G01 X-53.0075 Y35.4222 
G01 X-53.0545 Y35.3409 
G01 X-53.1209 Y35.2745 
G01 X-58.1434 Y30.2520 
G01 X-58.1453 Y30.2425 
G01 X-58.2066 Y30.0944 
G01 X-58.2957 Y29.9611 
G01 X-58.4091 Y29.8477 
G01 X-58.5424 Y29.7586 
G01 X-58.6905 Y29.6973 
G01 X-58.8477 Y29.6660 
G01 X-60.5322 Y29.6660 
G01 X-60.6894 Y29.6973 
G01 X-60.8375 Y29.7586 
G01 X-60.9708 Y29.8477 
G01 X-61.0842 Y29.9611 
G01 X-61.1733 Y30.0944 
G01 X-61.2346 Y30.2425 
G01 X-61.2659 Y30.3997 
G01 X-61.2659 Y30.5602 
G01 X-61.2346 Y30.7174 
G01 X-61.1733 Y30.8655 
G01 X-61.0842 Y30.9988 
G01 X-60.9708 Y31.1122 
G01 X-60.8375 Y31.2013 
G01 X-60.6894 Y31.2626 
G01 X-60.5322 Y31.2939 
G00 Z2.0000  
G00 X-71.9339 Y49.1928 
G01 Z-0.1000 F250   
G01 X-71.9339 Y49.8671 F650   
G01 X-71.4571 Y50.3439 
G01 X-70.7828 Y50.3439 
G01 X-70.3060 Y49.8671 
G01 X-70.3060 Y49.1928 
G01 X-70.7828 Y48.7160 
G01 X-71.4571 Y48.7160 
G01 X-71.9339 Y49.1928 
G00 Z2.0000  
G00 X-69.3939 Y49.1928 
G01 Z-0.1000 F250   
G01 X-69.3939 Y49.8671 F650   
G01 X-68.9171 Y50.3439 
G01 X-68.2428 Y50.3439 
G01 X-67.7660 Y49.8671 
G01 X-67.7660 Y49.1928 
G01 X-68.2428 Y48.7160 
G01 X-68.9171 Y48.7160 
G01 X-69.3939 Y49.1928 
G00 Z2.0000  
G00 X-71.9339 Y51.7328 
G01 Z-0.1000 F250   
G01 X-71.9339 Y52.4071 F650   
G01 X-71.4571 Y52.8839 
G01 X-70.7828 Y52.8839 
G01 X-70.3060 Y52.4071 
G01 X-70.3060 Y51.7328 
G01 X-70.7828 Y51.2560 
G01 X-71.4571 Y51.2560 
G01 X-71.9339 Y51.7328 
G00 Z2.0000  
G00 X-69.3939 Y51.7328 
G01 Z-0.1000 F250   
G01 X-69.3939 Y52.4071 F650   
G01 X-68.9171 Y52.8839 
G01 X-68.2428 Y52.8839 
G01 X-67.7660 Y52.4071 
G01 X-67.7660 Y51.7328 
G01 X-68.2428 Y51.2560 
G01 X-68.9171 Y51.2560 
G01 X-69.3939 Y51.7328 
G00 Z2.0000  
G00 X-71.9339 Y54.2728 
G01 Z-0.1000 F250   
G01 X-71.9339 Y54.9471 F650   
G01 X-71.4571 Y55.4239 
G01 X-70.7828 Y55.4239 
G01 X-70.3060 Y54.9471 
G01 X-70.3060 Y54.2728 
G01 X-70.7828 Y53.7960 
G01 X-71.4571 Y53.7960 
G01 X-71.9339 Y54.2728 
G00 Z2.0000  
G00 X-69.3939 Y54.2728 
G01 Z-0.1000 F250   
G01 X-69.3939 Y54.9471 F650   
G01 X-68.9171 Y55.4239 
G01 X-68.2428 Y55.4239 
G01 X-67.7660 Y54.9471 
G01 X-67.7660 Y54.2728 
G01 X-68.2428 Y53.7960 
G01 X-68.9171 Y53.7960 
G01 X-69.3939 Y54.2728 
G00 Z2.0000  
G00 X-69.3939 Y56.8128 
G01 Z-0.1000 F250   
G01 X-69.3939 Y57.4871 F650   
G01 X-68.9171 Y57.9639 
G01 X-68.2428 Y57.9639 
G01 X-67.7660 Y57.4871 
G01 X-67.7660 Y56.8128 
G01 X-68.2428 Y56.3360 
G01 X-68.9171 Y56.3360 
G01 X-69.3939 Y56.8128 
G00 Z2.0000  
G00 X-69.3939 Y61.8928 
G01 Z-0.1000 F250   
G01 X-69.3939 Y62.5671 F650   
G01 X-68.9171 Y63.0439 
G01 X-68.2428 Y63.0439 
G01 X-67.7660 Y62.5671 
G01 X-67.7660 Y61.8928 
G01 X-68.2428 Y61.4160 
G01 X-68.9171 Y61.4160 
G01 X-69.3939 Y61.8928 
G00 Z2.0000  
G00 X-69.3939 Y64.4328 
G01 Z-0.1000 F250   
G01 X-69.3939 Y65.1071 F650   
G01 X-68.9171 Y65.5839 
G01 X-68.2428 Y65.5839 
G01 X-67.7660 Y65.1071 
G01 X-67.7660 Y64.4328 
G01 X-68.2428 Y63.9560 
G01 X-68.9171 Y63.9560 
G01 X-69.3939 Y64.4328 
G00 Z2.0000  
G00 X-71.9339 Y66.9728 
G01 Z-0.1000 F250   
G01 X-71.9339 Y67.6471 F650   
G01 X-71.4571 Y68.1239 
G01 X-70.7828 Y68.1239 
G01 X-70.3060 Y67.6471 
G01 X-70.3060 Y66.9728 
G01 X-70.7828 Y66.4960 
G01 X-71.4571 Y66.4960 
G01 X-71.9339 Y66.9728 
G00 Z2.0000  
G00 X-69.3939 Y66.9728 
G01 Z-0.1000 F250   
G01 X-69.3939 Y67.6471 F650   
G01 X-68.9171 Y68.1239 
G01 X-68.2428 Y68.1239 
G01 X-67.7660 Y67.6471 
G01 X-67.7660 Y66.9728 
G01 X-68.2428 Y66.4960 
G01 X-68.9171 Y66.4960 
G01 X-69.3939 Y66.9728 
G00 Z2.0000  
G00 X-71.9339 Y69.5128 
G01 Z-0.1000 F250   
G01 X-71.9339 Y70.1871 F650   
G01 X-71.4571 Y70.6639 
G01 X-70.7828 Y70.6639 
G01 X-70.3060 Y70.1871 
G01 X-70.3060 Y69.5128 
G01 X-70.7828 Y69.0360 
G01 X-71.4571 Y69.0360 
G01 X-71.9339 Y69.5128 
G00 Z2.0000  
G00 X-69.3939 Y69.5128 
G01 Z-0.1000 F250   
G01 X-69.3939 Y70.1871 F650   
G01 X-68.9171 Y70.6639 
G01 X-68.2428 Y70.6639 
G01 X-67.7857 Y70.2067 
G01 X-67.3570 Y70.2067 
G01 X-67.2629 Y70.2067 
G01 X-67.1722 Y70.1824 
G01 X-67.0909 Y70.1354 
G01 X-59.5422 Y62.5867 
G01 X-38.2477 Y62.5867 
G01 X-37.1154 Y63.7190 
G01 X-37.0490 Y63.7854 
G01 X-36.9677 Y63.8324 
G01 X-36.8770 Y63.8567 
G01 X-35.7852 Y63.8567 
G01 X-35.7733 Y63.8855 
G01 X-35.6842 Y64.0188 
G01 X-35.5708 Y64.1322 
G01 X-35.4375 Y64.2213 
G01 X-35.2894 Y64.2826 
G01 X-35.1322 Y64.3139 
G01 X-33.4477 Y64.3139 
G01 X-33.2905 Y64.2826 
G01 X-33.1424 Y64.2213 
G01 X-33.0091 Y64.1322 
G01 X-32.8957 Y64.0188 
G01 X-32.8066 Y63.8855 
G01 X-32.7453 Y63.7374 
G01 X-32.7140 Y63.5802 
G01 X-32.7140 Y63.4197 
G01 X-32.7453 Y63.2625 
G01 X-32.8066 Y63.1144 
G01 X-32.8957 Y62.9811 
G01 X-33.0091 Y62.8677 
G01 X-33.1424 Y62.7786 
G01 X-33.2905 Y62.7173 
G01 X-33.4477 Y62.6860 
G01 X-35.1322 Y62.6860 
G01 X-35.2894 Y62.7173 
G01 X-35.4375 Y62.7786 
G01 X-35.5708 Y62.8677 
G01 X-35.6842 Y62.9811 
G01 X-35.7733 Y63.1144 
G01 X-35.7852 Y63.1432 
G01 X-36.6822 Y63.1432 
G01 X-37.8809 Y61.9445 
G01 X-37.9622 Y61.8975 
G01 X-38.0529 Y61.8732 
G01 X-38.1470 Y61.8732 
G01 X-59.7370 Y61.8732 
G01 X-59.8277 Y61.8975 
G01 X-59.9090 Y61.9445 
G01 X-59.9754 Y62.0109 
G01 X-67.4577 Y69.4932 
G01 X-67.7857 Y69.4932 
G01 X-68.2428 Y69.0360 
G01 X-68.9171 Y69.0360 
G01 X-69.3939 Y69.5128 
G00 Z2.0000  
G00 X-71.9339 Y72.0528 
G01 Z-0.1000 F250   
G01 X-71.9339 Y72.7271 F650   
G01 X-71.4571 Y73.2039 
G01 X-70.7828 Y73.2039 
G01 X-70.3060 Y72.7271 
G01 X-70.3060 Y72.0528 
G01 X-70.7828 Y71.5760 
G01 X-71.4571 Y71.5760 
G01 X-71.9339 Y72.0528 
G00 Z2.0000  
G00 X-69.3939 Y72.0528 
G01 Z-0.1000 F250   
G01 X-69.3939 Y72.7271 F650   
G01 X-68.9171 Y73.2039 
G01 X-68.2428 Y73.2039 
G01 X-67.7660 Y72.7271 
G01 X-67.7660 Y72.0528 
G01 X-68.2428 Y71.5760 
G01 X-68.9171 Y71.5760 
G01 X-69.3939 Y72.0528 
G00 Z2.0000  
G00 X-22.0460 Y55.4522 
G01 Z-0.1000 F250   
G01 X-22.0460 Y53.7677 F650   
G01 X-22.0773 Y53.6105 
G01 X-22.1386 Y53.4624 
G01 X-22.2277 Y53.3291 
G01 X-22.3411 Y53.2157 
G01 X-22.4744 Y53.1266 
G01 X-22.5032 Y53.1147 
G01 X-22.5032 Y51.0252 
G01 X-22.4744 Y51.0133 
G01 X-22.3411 Y50.9242 
G01 X-22.2277 Y50.8108 
G01 X-22.1386 Y50.6775 
G01 X-22.0773 Y50.5294 
G01 X-22.0460 Y50.3722 
G01 X-22.0460 Y48.6877 
G01 X-22.0773 Y48.5305 
G01 X-22.1386 Y48.3824 
G01 X-22.2277 Y48.2491 
G01 X-22.3411 Y48.1357 
G01 X-22.4744 Y48.0466 
G01 X-22.5032 Y48.0347 
G01 X-22.5032 Y46.9429 
G01 X-22.5275 Y46.8522 
G01 X-22.5745 Y46.7709 
G01 X-22.6409 Y46.7045 
G01 X-26.3132 Y43.0322 
G01 X-26.3132 Y40.8652 
G01 X-26.2844 Y40.8533 
G01 X-26.1511 Y40.7642 
G01 X-26.0377 Y40.6508 
G01 X-25.9486 Y40.5175 
G01 X-25.8873 Y40.3694 
G01 X-25.8560 Y40.2122 
G01 X-25.8560 Y38.5277 
G01 X-25.8873 Y38.3705 
G01 X-25.9486 Y38.2224 
G01 X-26.0377 Y38.0891 
G01 X-26.1511 Y37.9757 
G01 X-26.2844 Y37.8866 
G01 X-26.4325 Y37.8253 
G01 X-26.5897 Y37.7940 
G01 X-26.7502 Y37.7940 
G01 X-26.9074 Y37.8253 
G01 X-27.0555 Y37.8866 
G01 X-27.1888 Y37.9757 
G01 X-27.3022 Y38.0891 
G01 X-27.3913 Y38.2224 
G01 X-27.4526 Y38.3705 
G01 X-27.4839 Y38.5277 
G01 X-27.4839 Y40.2122 
G01 X-27.4526 Y40.3694 
G01 X-27.3913 Y40.5175 
G01 X-27.3022 Y40.6508 
G01 X-27.1888 Y40.7642 
G01 X-27.0555 Y40.8533 
G01 X-27.0267 Y40.8652 
G01 X-27.0267 Y43.1329 
G01 X-27.0267 Y43.2270 
G01 X-27.0024 Y43.3177 
G01 X-26.9554 Y43.3990 
G01 X-23.2167 Y47.1377 
G01 X-23.2167 Y48.0347 
G01 X-23.2455 Y48.0466 
G01 X-23.3788 Y48.1357 
G01 X-23.4922 Y48.2491 
G01 X-23.5813 Y48.3824 
G01 X-23.6426 Y48.5305 
G01 X-23.6739 Y48.6877 
G01 X-23.6739 Y50.3722 
G01 X-23.6426 Y50.5294 
G01 X-23.5813 Y50.6775 
G01 X-23.4922 Y50.8108 
G01 X-23.3788 Y50.9242 
G01 X-23.2455 Y51.0133 
G01 X-23.2167 Y51.0252 
G01 X-23.2167 Y53.1147 
G01 X-23.2455 Y53.1266 
G01 X-23.3788 Y53.2157 
G01 X-23.4922 Y53.3291 
G01 X-23.5813 Y53.4624 
G01 X-23.6426 Y53.6105 
G01 X-23.6739 Y53.7677 
G01 X-23.6739 Y55.4522 
G01 X-23.6426 Y55.6094 
G01 X-23.5813 Y55.7575 
G01 X-23.4922 Y55.8908 
G01 X-23.3788 Y56.0042 
G01 X-23.2455 Y56.0933 
G01 X-23.2167 Y56.1052 
G01 X-23.2167 Y58.1947 
G01 X-23.2455 Y58.2066 
G01 X-23.3788 Y58.2957 
G01 X-23.4922 Y58.4091 
G01 X-23.5813 Y58.5424 
G01 X-23.6426 Y58.6905 
G01 X-23.6739 Y58.8477 
G01 X-23.6739 Y60.5322 
G01 X-23.6426 Y60.6894 
G01 X-23.5813 Y60.8375 
G01 X-23.4922 Y60.9708 
G01 X-23.3788 Y61.0842 
G01 X-23.2455 Y61.1733 
G01 X-23.0974 Y61.2346 
G01 X-22.9402 Y61.2659 
G01 X-22.7797 Y61.2659 
G01 X-22.6225 Y61.2346 
G01 X-22.4744 Y61.1733 
G01 X-22.3411 Y61.0842 
G01 X-22.2277 Y60.9708 
G01 X-22.1386 Y60.8375 
G01 X-22.0773 Y60.6894 
G01 X-22.0460 Y60.5322 
G01 X-22.0460 Y58.8477 
G01 X-22.0773 Y58.6905 
G01 X-22.1386 Y58.5424 
G01 X-22.2277 Y58.4091 
G01 X-22.3411 Y58.2957 
G01 X-22.4744 Y58.2066 
G01 X-22.5032 Y58.1947 
G01 X-22.5032 Y56.1052 
G01 X-22.4744 Y56.0933 
G01 X-22.3411 Y56.0042 
G01 X-22.2277 Y55.8908 
G01 X-22.1386 Y55.7575 
G01 X-22.0773 Y55.6094 
G01 X-22.0460 Y55.4522 
G00 Z2.0000  
G00 X-50.3722 Y28.7539 
G01 Z-0.1000 F250   
G01 X-48.6877 Y28.7539 F650   
G01 X-48.5305 Y28.7226 
G01 X-48.3824 Y28.6613 
G01 X-48.2491 Y28.5722 
G01 X-48.1357 Y28.4588 
G01 X-48.0466 Y28.3255 
G01 X-47.9853 Y28.1774 
G01 X-47.9540 Y28.0202 
G01 X-47.9540 Y27.8597 
G01 X-47.9853 Y27.7025 
G01 X-48.0466 Y27.5544 
G01 X-48.1357 Y27.4211 
G01 X-48.2491 Y27.3077 
G01 X-48.3824 Y27.2186 
G01 X-48.5305 Y27.1573 
G01 X-48.6877 Y27.1260 
G01 X-50.3722 Y27.1260 
G01 X-50.5294 Y27.1573 
G01 X-50.6775 Y27.2186 
G01 X-50.8108 Y27.3077 
G01 X-50.9242 Y27.4211 
G01 X-51.0133 Y27.5544 
G01 X-51.0746 Y27.7025 
G01 X-51.1059 Y27.8597 
G01 X-51.1059 Y28.0202 
G01 X-51.0746 Y28.1774 
G01 X-51.0133 Y28.3255 
G01 X-50.9242 Y28.4588 
G01 X-50.8108 Y28.5722 
G01 X-50.6775 Y28.6613 
G01 X-50.5294 Y28.7226 
G01 X-50.3722 Y28.7539 
G00 Z2.0000  
G00 X-50.3722 Y31.2939 
G01 Z-0.1000 F250   
G01 X-48.6877 Y31.2939 F650   
G01 X-48.5305 Y31.2626 
G01 X-48.3824 Y31.2013 
G01 X-48.2491 Y31.1122 
G01 X-48.1357 Y30.9988 
G01 X-48.0466 Y30.8655 
G01 X-47.9853 Y30.7174 
G01 X-47.9540 Y30.5602 
G01 X-47.9540 Y30.3997 
G01 X-47.9853 Y30.2425 
G01 X-48.0466 Y30.0944 
G01 X-48.1357 Y29.9611 
G01 X-48.2491 Y29.8477 
G01 X-48.3824 Y29.7586 
G01 X-48.5305 Y29.6973 
G01 X-48.6877 Y29.6660 
G01 X-50.3722 Y29.6660 
G01 X-50.5294 Y29.6973 
G01 X-50.6775 Y29.7586 
G01 X-50.8108 Y29.8477 
G01 X-50.9242 Y29.9611 
G01 X-51.0133 Y30.0944 
G01 X-51.0746 Y30.2425 
G01 X-51.1059 Y30.3997 
G01 X-51.1059 Y30.5602 
G01 X-51.0746 Y30.7174 
G01 X-51.0133 Y30.8655 
G01 X-50.9242 Y30.9988 
G01 X-50.8108 Y31.1122 
G01 X-50.6775 Y31.2013 
G01 X-50.5294 Y31.2626 
G01 X-50.3722 Y31.2939 
G00 Z2.0000  
G00 X-50.3722 Y33.8339 
G01 Z-0.1000 F250   
G01 X-48.6877 Y33.8339 F650   
G01 X-48.5305 Y33.8026 
G01 X-48.3824 Y33.7413 
G01 X-48.2491 Y33.6522 
G01 X-48.1357 Y33.5388 
G01 X-48.0466 Y33.4055 
G01 X-47.9853 Y33.2574 
G01 X-47.9540 Y33.1002 
G01 X-47.9540 Y32.9397 
G01 X-47.9853 Y32.7825 
G01 X-48.0466 Y32.6344 
G01 X-48.1357 Y32.5011 
G01 X-48.2491 Y32.3877 
G01 X-48.3824 Y32.2986 
G01 X-48.5305 Y32.2373 
G01 X-48.6877 Y32.2060 
G01 X-50.3722 Y32.2060 
G01 X-50.5294 Y32.2373 
G01 X-50.6775 Y32.2986 
G01 X-50.8108 Y32.3877 
G01 X-50.9242 Y32.5011 
G01 X-51.0133 Y32.6344 
G01 X-51.0746 Y32.7825 
G01 X-51.1059 Y32.9397 
G01 X-51.1059 Y33.1002 
G01 X-51.0746 Y33.2574 
G01 X-51.0133 Y33.4055 
G01 X-50.9242 Y33.5388 
G01 X-50.8108 Y33.6522 
G01 X-50.6775 Y33.7413 
G01 X-50.5294 Y33.8026 
G01 X-50.3722 Y33.8339 
G00 Z2.0000  
G00 X-50.3722 Y36.3739 
G01 Z-0.1000 F250   
G01 X-48.6877 Y36.3739 F650   
G01 X-48.5305 Y36.3426 
G01 X-48.3824 Y36.2813 
G01 X-48.2491 Y36.1922 
G01 X-48.1357 Y36.0788 
G01 X-48.0466 Y35.9455 
G01 X-47.9853 Y35.7974 
G01 X-47.9540 Y35.6402 
G01 X-47.9540 Y35.4797 
G01 X-47.9853 Y35.3225 
G01 X-48.0466 Y35.1744 
G01 X-48.1357 Y35.0411 
G01 X-48.2491 Y34.9277 
G01 X-48.3824 Y34.8386 
G01 X-48.5305 Y34.7773 
G01 X-48.6877 Y34.7460 
G01 X-50.3722 Y34.7460 
G01 X-50.5294 Y34.7773 
G01 X-50.6775 Y34.8386 
G01 X-50.8108 Y34.9277 
G01 X-50.9242 Y35.0411 
G01 X-51.0133 Y35.1744 
G01 X-51.0746 Y35.3225 
G01 X-51.1059 Y35.4797 
G01 X-51.1059 Y35.6402 
G01 X-51.0746 Y35.7974 
G01 X-51.0133 Y35.9455 
G01 X-50.9242 Y36.0788 
G01 X-50.8108 Y36.1922 
G01 X-50.6775 Y36.2813 
G01 X-50.5294 Y36.3426 
G01 X-50.3722 Y36.3739 
G00 Z2.0000  
G00 X-50.3722 Y38.9139 
G01 Z-0.1000 F250   
G01 X-48.6877 Y38.9139 F650   
G01 X-48.5305 Y38.8826 
G01 X-48.3824 Y38.8213 
G01 X-48.2491 Y38.7322 
G01 X-48.1357 Y38.6188 
G01 X-48.0466 Y38.4855 
G01 X-47.9853 Y38.3374 
G01 X-47.9540 Y38.1802 
G01 X-47.9540 Y38.0197 
G01 X-47.9853 Y37.8625 
G01 X-48.0466 Y37.7144 
G01 X-48.1357 Y37.5811 
G01 X-48.2491 Y37.4677 
G01 X-48.3824 Y37.3786 
G01 X-48.5305 Y37.3173 
G01 X-48.6877 Y37.2860 
G01 X-50.3722 Y37.2860 
G01 X-50.5294 Y37.3173 
G01 X-50.6775 Y37.3786 
G01 X-50.8108 Y37.4677 
G01 X-50.9242 Y37.5811 
G01 X-51.0133 Y37.7144 
G01 X-51.0746 Y37.8625 
G01 X-51.1059 Y38.0197 
G01 X-51.1059 Y38.1802 
G01 X-51.0746 Y38.3374 
G01 X-51.0133 Y38.4855 
G01 X-50.9242 Y38.6188 
G01 X-50.8108 Y38.7322 
G01 X-50.6775 Y38.8213 
G01 X-50.5294 Y38.8826 
G01 X-50.3722 Y38.9139 
G00 Z2.0000  
G00 X-50.3722 Y41.4539 
G01 Z-0.1000 F250   
G01 X-48.6877 Y41.4539 F650   
G01 X-48.5305 Y41.4226 
G01 X-48.3824 Y41.3613 
G01 X-48.2491 Y41.2722 
G01 X-48.1357 Y41.1588 
G01 X-48.0466 Y41.0255 
G01 X-47.9853 Y40.8774 
G01 X-47.9540 Y40.7202 
G01 X-47.9540 Y40.5597 
G01 X-47.9853 Y40.4025 
G01 X-48.0466 Y40.2544 
G01 X-48.1357 Y40.1211 
G01 X-48.2491 Y40.0077 
G01 X-48.3824 Y39.9186 
G01 X-48.5305 Y39.8573 
G01 X-48.6877 Y39.8260 
G01 X-50.3722 Y39.8260 
G01 X-50.5294 Y39.8573 
G01 X-50.6775 Y39.9186 
G01 X-50.8108 Y40.0077 
G01 X-50.9242 Y40.1211 
G01 X-51.0133 Y40.2544 
G01 X-51.0746 Y40.4025 
G01 X-51.1059 Y40.5597 
G01 X-51.1059 Y40.7202 
G01 X-51.0746 Y40.8774 
G01 X-51.0133 Y41.0255 
G01 X-50.9242 Y41.1588 
G01 X-50.8108 Y41.2722 
G01 X-50.6775 Y41.3613 
G01 X-50.5294 Y41.4226 
G01 X-50.3722 Y41.4539 
G00 Z2.0000  
G00 X-50.3722 Y43.9939 
G01 Z-0.1000 F250   
G01 X-48.6877 Y43.9939 F650   
G01 X-48.5305 Y43.9626 
G01 X-48.3824 Y43.9013 
G01 X-48.2491 Y43.8122 
G01 X-48.1357 Y43.6988 
G01 X-48.0466 Y43.5655 
G01 X-47.9853 Y43.4174 
G01 X-47.9540 Y43.2602 
G01 X-47.9540 Y43.0997 
G01 X-47.9853 Y42.9425 
G01 X-48.0466 Y42.7944 
G01 X-48.1357 Y42.6611 
G01 X-48.2491 Y42.5477 
G01 X-48.3824 Y42.4586 
G01 X-48.5305 Y42.3973 
G01 X-48.6877 Y42.3660 
G01 X-50.3722 Y42.3660 
G01 X-50.5294 Y42.3973 
G01 X-50.6775 Y42.4586 
G01 X-50.8108 Y42.5477 
G01 X-50.9242 Y42.6611 
G01 X-51.0133 Y42.7944 
G01 X-51.0746 Y42.9425 
G01 X-51.1059 Y43.0997 
G01 X-51.1059 Y43.2602 
G01 X-51.0746 Y43.4174 
G01 X-51.0133 Y43.5655 
G01 X-50.9242 Y43.6988 
G01 X-50.8108 Y43.8122 
G01 X-50.6775 Y43.9013 
G01 X-50.5294 Y43.9626 
G01 X-50.3722 Y43.9939 
G00 Z2.0000  
G00 X-50.3722 Y49.0739 
G01 Z-0.1000 F250   
G01 X-48.6877 Y49.0739 F650   
G01 X-48.5305 Y49.0426 
G01 X-48.3824 Y48.9813 
G01 X-48.2491 Y48.8922 
G01 X-48.1357 Y48.7788 
G01 X-48.0466 Y48.6455 
G01 X-47.9853 Y48.4974 
G01 X-47.9540 Y48.3402 
G01 X-47.9540 Y48.1797 
G01 X-47.9853 Y48.0225 
G01 X-48.0466 Y47.8744 
G01 X-48.1357 Y47.7411 
G01 X-48.2491 Y47.6277 
G01 X-48.3824 Y47.5386 
G01 X-48.5305 Y47.4773 
G01 X-48.6877 Y47.4460 
G01 X-50.3722 Y47.4460 
G01 X-50.5294 Y47.4773 
G01 X-50.6775 Y47.5386 
G01 X-50.8108 Y47.6277 
G01 X-50.9242 Y47.7411 
G01 X-51.0133 Y47.8744 
G01 X-51.0252 Y47.9032 
G01 X-51.9222 Y47.9032 
G01 X-55.5232 Y44.3022 
G01 X-55.5232 Y35.5129 
G01 X-55.5475 Y35.4222 
G01 X-55.5945 Y35.3409 
G01 X-55.6609 Y35.2745 
G01 X-58.1434 Y32.7920 
G01 X-58.1453 Y32.7825 
G01 X-58.2066 Y32.6344 
G01 X-58.2957 Y32.5011 
G01 X-58.4091 Y32.3877 
G01 X-58.5424 Y32.2986 
G01 X-58.6905 Y32.2373 
G01 X-58.8477 Y32.2060 
G01 X-60.5322 Y32.2060 
G01 X-60.6894 Y32.2373 
G01 X-60.8375 Y32.2986 
G01 X-60.9708 Y32.3877 
G01 X-61.0842 Y32.5011 
G01 X-61.1733 Y32.6344 
G01 X-61.2346 Y32.7825 
G01 X-61.2659 Y32.9397 
G01 X-61.2659 Y33.1002 
G01 X-61.2346 Y33.2574 
G01 X-61.1733 Y33.4055 
G01 X-61.0842 Y33.5388 
G01 X-60.9708 Y33.6522 
G01 X-60.8375 Y33.7413 
G01 X-60.6894 Y33.8026 
G01 X-60.5322 Y33.8339 
G01 X-58.8477 Y33.8339 
G01 X-58.6905 Y33.8026 
G01 X-58.5424 Y33.7413 
G01 X-58.4091 Y33.6522 
G01 X-58.3506 Y33.5937 
G01 X-56.2367 Y35.7077 
G01 X-56.2367 Y44.4029 
G01 X-56.2367 Y44.4970 
G01 X-56.2124 Y44.5877 
G01 X-56.1654 Y44.6690 
G01 X-52.3554 Y48.4790 
G01 X-52.2890 Y48.5454 
G01 X-52.2077 Y48.5924 
G01 X-52.1170 Y48.6167 
G01 X-51.0252 Y48.6167 
G01 X-51.0133 Y48.6455 
G01 X-50.9242 Y48.7788 
G01 X-50.8108 Y48.8922 
G01 X-50.6775 Y48.9813 
G01 X-50.5294 Y49.0426 
G01 X-50.3722 Y49.0739 
G00 Z2.0000  
G00 X-50.3722 Y51.6139 
G01 Z-0.1000 F250   
G01 X-48.6877 Y51.6139 F650   
G01 X-48.5305 Y51.5826 
G01 X-48.3824 Y51.5213 
G01 X-48.2491 Y51.4322 
G01 X-48.1357 Y51.3188 
G01 X-48.0466 Y51.1855 
G01 X-47.9853 Y51.0374 
G01 X-47.9540 Y50.8802 
G01 X-47.9540 Y50.7197 
G01 X-47.9853 Y50.5625 
G01 X-48.0466 Y50.4144 
G01 X-48.1357 Y50.2811 
G01 X-48.2491 Y50.1677 
G01 X-48.3824 Y50.0786 
G01 X-48.5305 Y50.0173 
G01 X-48.6877 Y49.9860 
G01 X-50.3722 Y49.9860 
G01 X-50.5294 Y50.0173 
G01 X-50.6775 Y50.0786 
G01 X-50.8108 Y50.1677 
G01 X-50.9242 Y50.2811 
G01 X-51.0133 Y50.4144 
G01 X-51.0746 Y50.5625 
G01 X-51.1059 Y50.7197 
G01 X-51.1059 Y50.8802 
G01 X-51.0746 Y51.0374 
G01 X-51.0133 Y51.1855 
G01 X-50.9242 Y51.3188 
G01 X-50.8108 Y51.4322 
G01 X-50.6775 Y51.5213 
G01 X-50.5294 Y51.5826 
G01 X-50.3722 Y51.6139 
G00 Z2.0000  
G00 X-50.3722 Y54.1539 
G01 Z-0.1000 F250   
G01 X-48.6877 Y54.1539 F650   
G01 X-48.5305 Y54.1226 
G01 X-48.3824 Y54.0613 
G01 X-48.2491 Y53.9722 
G01 X-48.1357 Y53.8588 
G01 X-48.0466 Y53.7255 
G01 X-47.9853 Y53.5774 
G01 X-47.9540 Y53.4202 
G01 X-47.9540 Y53.2597 
G01 X-47.9853 Y53.1025 
G01 X-48.0466 Y52.9544 
G01 X-48.1357 Y52.8211 
G01 X-48.2491 Y52.7077 
G01 X-48.3824 Y52.6186 
G01 X-48.5305 Y52.5573 
G01 X-48.6877 Y52.5260 
G01 X-50.3722 Y52.5260 
G01 X-50.5294 Y52.5573 
G01 X-50.6775 Y52.6186 
G01 X-50.8108 Y52.7077 
G01 X-50.9242 Y52.8211 
G01 X-51.0133 Y52.9544 
G01 X-51.0746 Y53.1025 
G01 X-51.1059 Y53.2597 
G01 X-51.1059 Y53.4202 
G01 X-51.0746 Y53.5774 
G01 X-51.0133 Y53.7255 
G01 X-50.9242 Y53.8588 
G01 X-50.8108 Y53.9722 
G01 X-50.6775 Y54.0613 
G01 X-50.5294 Y54.1226 
G01 X-50.3722 Y54.1539 
G00 Z2.0000  
G00 X-50.3722 Y56.6939 
G01 Z-0.1000 F250   
G01 X-48.6877 Y56.6939 F650   
G01 X-48.5305 Y56.6626 
G01 X-48.3824 Y56.6013 
G01 X-48.2491 Y56.5122 
G01 X-48.1357 Y56.3988 
G01 X-48.0466 Y56.2655 
G01 X-47.9853 Y56.1174 
G01 X-47.9540 Y55.9602 
G01 X-47.9540 Y55.7997 
G01 X-47.9853 Y55.6425 
G01 X-48.0466 Y55.4944 
G01 X-48.1357 Y55.3611 
G01 X-48.2491 Y55.2477 
G01 X-48.3824 Y55.1586 
G01 X-48.5305 Y55.0973 
G01 X-48.6877 Y55.0660 
G01 X-50.3722 Y55.0660 
G01 X-50.5294 Y55.0973 
G01 X-50.6775 Y55.1586 
G01 X-50.8108 Y55.2477 
G01 X-50.9242 Y55.3611 
G01 X-51.0133 Y55.4944 
G01 X-51.0252 Y55.5232 
G01 X-51.9222 Y55.5232 
G01 X-56.7932 Y50.6522 
G01 X-56.7932 Y36.7829 
G01 X-56.8175 Y36.6922 
G01 X-56.8645 Y36.6109 
G01 X-56.9309 Y36.5445 
G01 X-58.1434 Y35.3320 
G01 X-58.1453 Y35.3225 
G01 X-58.2066 Y35.1744 
G01 X-58.2957 Y35.0411 
G01 X-58.4091 Y34.9277 
G01 X-58.5424 Y34.8386 
G01 X-58.6905 Y34.7773 
G01 X-58.8477 Y34.7460 
G01 X-60.5322 Y34.7460 
G01 X-60.6894 Y34.7773 
G01 X-60.8375 Y34.8386 
G01 X-60.9708 Y34.9277 
G01 X-61.0842 Y35.0411 
G01 X-61.1733 Y35.1744 
G01 X-61.2346 Y35.3225 
G01 X-61.2659 Y35.4797 
G01 X-61.2659 Y35.6402 
G01 X-61.2346 Y35.7974 
G01 X-61.1733 Y35.9455 
G01 X-61.0842 Y36.0788 
G01 X-60.9708 Y36.1922 
G01 X-60.8375 Y36.2813 
G01 X-60.6894 Y36.3426 
G01 X-60.5322 Y36.3739 
G01 X-58.8477 Y36.3739 
G01 X-58.6905 Y36.3426 
G01 X-58.5424 Y36.2813 
G01 X-58.4091 Y36.1922 
G01 X-58.3506 Y36.1337 
G01 X-57.5067 Y36.9777 
G01 X-57.5067 Y50.7529 
G01 X-57.5067 Y50.8470 
G01 X-57.4824 Y50.9377 
G01 X-57.4354 Y51.0190 
G01 X-52.3554 Y56.0990 
G01 X-52.2890 Y56.1654 
G01 X-52.2077 Y56.2124 
G01 X-52.1170 Y56.2367 
G01 X-51.0252 Y56.2367 
G01 X-51.0133 Y56.2655 
G01 X-50.9242 Y56.3988 
G01 X-50.8108 Y56.5122 
G01 X-50.6775 Y56.6013 
G01 X-50.5294 Y56.6626 
G01 X-50.3722 Y56.6939 
G00 Z2.0000  
G00 X-50.3722 Y59.2339 
G01 Z-0.1000 F250   
G01 X-48.6877 Y59.2339 F650   
G01 X-48.5305 Y59.2026 
G01 X-48.3824 Y59.1413 
G01 X-48.2491 Y59.0522 
G01 X-48.1357 Y58.9388 
G01 X-48.0466 Y58.8055 
G01 X-47.9853 Y58.6574 
G01 X-47.9540 Y58.5002 
G01 X-47.9540 Y58.3397 
G01 X-47.9853 Y58.1825 
G01 X-48.0466 Y58.0344 
G01 X-48.1357 Y57.9011 
G01 X-48.2491 Y57.7877 
G01 X-48.3824 Y57.6986 
G01 X-48.5305 Y57.6373 
G01 X-48.6877 Y57.6060 
G01 X-50.3722 Y57.6060 
G01 X-50.5294 Y57.6373 
G01 X-50.6775 Y57.6986 
G01 X-50.8108 Y57.7877 
G01 X-50.9242 Y57.9011 
G01 X-51.0133 Y58.0344 
G01 X-51.0746 Y58.1825 
G01 X-51.1059 Y58.3397 
G01 X-51.1059 Y58.5002 
G01 X-51.0746 Y58.6574 
G01 X-51.0133 Y58.8055 
G01 X-50.9242 Y58.9388 
G01 X-50.8108 Y59.0522 
G01 X-50.6775 Y59.1413 
G01 X-50.5294 Y59.2026 
G01 X-50.3722 Y59.2339 
G00 Z2.0000  
G00 X-50.3722 Y61.7739 
G01 Z-0.1000 F250   
G01 X-48.6877 Y61.7739 F650   
G01 X-48.5305 Y61.7426 
G01 X-48.3824 Y61.6813 
G01 X-48.2491 Y61.5922 
G01 X-48.1357 Y61.4788 
G01 X-48.0466 Y61.3455 
G01 X-47.9853 Y61.1974 
G01 X-47.9540 Y61.0402 
G01 X-47.9540 Y60.8797 
G01 X-47.9853 Y60.7225 
G01 X-48.0466 Y60.5744 
G01 X-48.1357 Y60.4411 
G01 X-48.2491 Y60.3277 
G01 X-48.3824 Y60.2386 
G01 X-48.5305 Y60.1773 
G01 X-48.6877 Y60.1460 
G01 X-50.3722 Y60.1460 
G01 X-50.5294 Y60.1773 
G01 X-50.6775 Y60.2386 
G01 X-50.8108 Y60.3277 
G01 X-50.9242 Y60.4411 
G01 X-51.0133 Y60.5744 
G01 X-51.0746 Y60.7225 
G01 X-51.1059 Y60.8797 
G01 X-51.1059 Y61.0402 
G01 X-51.0746 Y61.1974 
G01 X-51.0133 Y61.3455 
G01 X-50.9242 Y61.4788 
G01 X-50.8108 Y61.5922 
G01 X-50.6775 Y61.6813 
G01 X-50.5294 Y61.7426 
G01 X-50.3722 Y61.7739 
G00 Z2.0000  
G00 X-35.1322 Y28.7539 
G01 Z-0.1000 F250   
G01 X-33.4477 Y28.7539 F650   
G01 X-33.2905 Y28.7226 
G01 X-33.1424 Y28.6613 
G01 X-33.0091 Y28.5722 
G01 X-32.8957 Y28.4588 
G01 X-32.8066 Y28.3255 
G01 X-32.7453 Y28.1774 
G01 X-32.7140 Y28.0202 
G01 X-32.7140 Y27.8597 
G01 X-32.7453 Y27.7025 
G01 X-32.8066 Y27.5544 
G01 X-32.8957 Y27.4211 
G01 X-33.0091 Y27.3077 
G01 X-33.1424 Y27.2186 
G01 X-33.2905 Y27.1573 
G01 X-33.4477 Y27.1260 
G01 X-35.1322 Y27.1260 
G01 X-35.2894 Y27.1573 
G01 X-35.4375 Y27.2186 
G01 X-35.5708 Y27.3077 
G01 X-35.6842 Y27.4211 
G01 X-35.7733 Y27.5544 
G01 X-35.8346 Y27.7025 
G01 X-35.8659 Y27.8597 
G01 X-35.8659 Y28.0202 
G01 X-35.8346 Y28.1774 
G01 X-35.7733 Y28.3255 
G01 X-35.6842 Y28.4588 
G01 X-35.5708 Y28.5722 
G01 X-35.4375 Y28.6613 
G01 X-35.2894 Y28.7226 
G01 X-35.1322 Y28.7539 
G00 Z2.0000  
G00 X-35.1322 Y33.8339 
G01 Z-0.1000 F250   
G01 X-33.4477 Y33.8339 F650   
G01 X-33.2905 Y33.8026 
G01 X-33.1424 Y33.7413 
G01 X-33.0091 Y33.6522 
G01 X-32.8957 Y33.5388 
G01 X-32.8066 Y33.4055 
G01 X-32.7453 Y33.2574 
G01 X-32.7140 Y33.1002 
G01 X-32.7140 Y32.9397 
G01 X-32.7453 Y32.7825 
G01 X-32.8066 Y32.6344 
G01 X-32.8957 Y32.5011 
G01 X-33.0091 Y32.3877 
G01 X-33.1424 Y32.2986 
G01 X-33.2905 Y32.2373 
G01 X-33.4477 Y32.2060 
G01 X-35.1322 Y32.2060 
G01 X-35.2894 Y32.2373 
G01 X-35.4375 Y32.2986 
G01 X-35.5708 Y32.3877 
G01 X-35.6842 Y32.5011 
G01 X-35.7733 Y32.6344 
G01 X-35.7852 Y32.6632 
G01 X-39.2222 Y32.6632 
G01 X-42.8232 Y29.0622 
G01 X-42.8232 Y23.0077 
G01 X-41.7622 Y21.9467 
G01 X-24.3552 Y21.9467 
G01 X-24.3433 Y21.9755 
G01 X-24.2542 Y22.1088 
G01 X-24.1408 Y22.2222 
G01 X-24.0075 Y22.3113 
G01 X-23.8594 Y22.3726 
G01 X-23.7022 Y22.4039 
G01 X-22.0177 Y22.4039 
G01 X-21.8605 Y22.3726 
G01 X-21.7124 Y22.3113 
G01 X-21.5791 Y22.2222 
G01 X-21.4657 Y22.1088 
G01 X-21.3766 Y21.9755 
G01 X-21.3153 Y21.8274 
G01 X-21.2840 Y21.6702 
G01 X-21.2840 Y21.5097 
G01 X-21.3153 Y21.3525 
G01 X-21.3766 Y21.2044 
G01 X-21.4657 Y21.0711 
G01 X-21.5791 Y20.9577 
G01 X-21.7124 Y20.8686 
G01 X-21.8605 Y20.8073 
G01 X-22.0177 Y20.7760 
G01 X-23.7022 Y20.7760 
G01 X-23.8594 Y20.8073 
G01 X-24.0075 Y20.8686 
G01 X-24.1408 Y20.9577 
G01 X-24.2542 Y21.0711 
G01 X-24.3433 Y21.2044 
G01 X-24.3552 Y21.2332 
G01 X-41.8629 Y21.2332 
G01 X-41.9570 Y21.2332 
G01 X-42.0477 Y21.2575 
G01 X-42.1290 Y21.3045 
G01 X-43.3990 Y22.5745 
G01 X-43.4654 Y22.6409 
G01 X-43.5124 Y22.7222 
G01 X-43.5367 Y22.8129 
G01 X-43.5367 Y29.1629 
G01 X-43.5367 Y29.2570 
G01 X-43.5124 Y29.3477 
G01 X-43.4654 Y29.4290 
G01 X-39.6554 Y33.2390 
G01 X-39.5890 Y33.3054 
G01 X-39.5077 Y33.3524 
G01 X-39.4170 Y33.3767 
G01 X-35.7852 Y33.3767 
G01 X-35.7733 Y33.4055 
G01 X-35.6842 Y33.5388 
G01 X-35.5708 Y33.6522 
G01 X-35.4375 Y33.7413 
G01 X-35.2894 Y33.8026 
G01 X-35.1322 Y33.8339 
G00 Z2.0000  
G00 X-35.1322 Y38.9139 
G01 Z-0.1000 F250   
G01 X-33.4477 Y38.9139 F650   
G01 X-33.2905 Y38.8826 
G01 X-33.1424 Y38.8213 
G01 X-33.0091 Y38.7322 
G01 X-32.8957 Y38.6188 
G01 X-32.8066 Y38.4855 
G01 X-32.7947 Y38.4567 
G01 X-31.7029 Y38.4567 
G01 X-31.6122 Y38.4324 
G01 X-31.5309 Y38.3854 
G01 X-31.4645 Y38.3190 
G01 X-31.4175 Y38.2377 
G01 X-31.3932 Y38.1470 
G01 X-31.3932 Y38.0529 
G01 X-31.3932 Y31.8977 
G01 X-30.3322 Y30.8367 
G01 X-27.8929 Y30.8367 
G01 X-27.8022 Y30.8124 
G01 X-27.7209 Y30.7654 
G01 X-27.6545 Y30.6990 
G01 X-24.1993 Y27.2437 
G01 X-24.1408 Y27.3022 
G01 X-24.0075 Y27.3913 
G01 X-23.8594 Y27.4526 
G01 X-23.7022 Y27.4839 
G01 X-22.0177 Y27.4839 
G01 X-21.8605 Y27.4526 
G01 X-21.7124 Y27.3913 
G01 X-21.5791 Y27.3022 
G01 X-21.4657 Y27.1888 
G01 X-21.3766 Y27.0555 
G01 X-21.3153 Y26.9074 
G01 X-21.2840 Y26.7502 
G01 X-21.2840 Y26.5897 
G01 X-21.3153 Y26.4325 
G01 X-21.3766 Y26.2844 
G01 X-21.4657 Y26.1511 
G01 X-21.5791 Y26.0377 
G01 X-21.7124 Y25.9486 
G01 X-21.8605 Y25.8873 
G01 X-22.0177 Y25.8560 
G01 X-23.7022 Y25.8560 
G01 X-23.8594 Y25.8873 
G01 X-24.0075 Y25.9486 
G01 X-24.1408 Y26.0377 
G01 X-24.2542 Y26.1511 
G01 X-24.3433 Y26.2844 
G01 X-24.4046 Y26.4325 
G01 X-24.4065 Y26.4420 
G01 X-28.0877 Y30.1232 
G01 X-30.4329 Y30.1232 
G01 X-30.5270 Y30.1232 
G01 X-30.6177 Y30.1475 
G01 X-30.6990 Y30.1945 
G01 X-31.9690 Y31.4645 
G01 X-32.0354 Y31.5309 
G01 X-32.0824 Y31.6122 
G01 X-32.1067 Y31.7029 
G01 X-32.1067 Y37.7432 
G01 X-32.7947 Y37.7432 
G01 X-32.8066 Y37.7144 
G01 X-32.8957 Y37.5811 
G01 X-33.0091 Y37.4677 
G01 X-33.1424 Y37.3786 
G01 X-33.2905 Y37.3173 
G01 X-33.4477 Y37.2860 
G01 X-35.1322 Y37.2860 
G01 X-35.2894 Y37.3173 
G01 X-35.4375 Y37.3786 
G01 X-35.5708 Y37.4677 
G01 X-35.6842 Y37.5811 
G01 X-35.7733 Y37.7144 
G01 X-35.8346 Y37.8625 
G01 X-35.8659 Y38.0197 
G01 X-35.8659 Y38.1802 
G01 X-35.8346 Y38.3374 
G01 X-35.7733 Y38.4855 
G01 X-35.6842 Y38.6188 
G01 X-35.5708 Y38.7322 
G01 X-35.4375 Y38.8213 
G01 X-35.2894 Y38.8826 
G01 X-35.1322 Y38.9139 
G00 Z2.0000  
G00 X-35.1322 Y43.9939 
G01 Z-0.1000 F250   
G01 X-33.4477 Y43.9939 F650   
G01 X-33.2905 Y43.9626 
G01 X-33.1424 Y43.9013 
G01 X-33.0091 Y43.8122 
G01 X-32.8957 Y43.6988 
G01 X-32.8066 Y43.5655 
G01 X-32.7947 Y43.5367 
G01 X-29.3577 Y43.5367 
G01 X-25.7567 Y47.1377 
G01 X-25.7567 Y48.0347 
G01 X-25.7855 Y48.0466 
G01 X-25.9188 Y48.1357 
G01 X-26.0322 Y48.2491 
G01 X-26.1213 Y48.3824 
G01 X-26.1826 Y48.5305 
G01 X-26.2139 Y48.6877 
G01 X-26.2139 Y50.3722 
G01 X-26.1826 Y50.5294 
G01 X-26.1213 Y50.6775 
G01 X-26.0322 Y50.8108 
G01 X-25.9188 Y50.9242 
G01 X-25.7855 Y51.0133 
G01 X-25.6374 Y51.0746 
G01 X-25.4802 Y51.1059 
G01 X-25.3197 Y51.1059 
G01 X-25.1625 Y51.0746 
G01 X-25.0144 Y51.0133 
G01 X-24.8811 Y50.9242 
G01 X-24.7677 Y50.8108 
G01 X-24.6786 Y50.6775 
G01 X-24.6173 Y50.5294 
G01 X-24.5860 Y50.3722 
G01 X-24.5860 Y48.6877 
G01 X-24.6173 Y48.5305 
G01 X-24.6786 Y48.3824 
G01 X-24.7677 Y48.2491 
G01 X-24.8811 Y48.1357 
G01 X-25.0144 Y48.0466 
G01 X-25.0432 Y48.0347 
G01 X-25.0432 Y47.0370 
G01 X-25.0432 Y46.9429 
G01 X-25.0675 Y46.8522 
G01 X-25.1145 Y46.7709 
G01 X-28.9245 Y42.9609 
G01 X-28.9909 Y42.8945 
G01 X-29.0722 Y42.8475 
G01 X-29.1629 Y42.8232 
G01 X-32.7947 Y42.8232 
G01 X-32.8066 Y42.7944 
G01 X-32.8957 Y42.6611 
G01 X-33.0091 Y42.5477 
G01 X-33.1424 Y42.4586 
G01 X-33.2905 Y42.3973 
G01 X-33.4477 Y42.3660 
G01 X-35.1322 Y42.3660 
G01 X-35.2894 Y42.3973 
G01 X-35.4375 Y42.4586 
G01 X-35.5708 Y42.5477 
G01 X-35.6842 Y42.6611 
G01 X-35.7733 Y42.7944 
G01 X-35.8346 Y42.9425 
G01 X-35.8659 Y43.0997 
G01 X-35.8659 Y43.2602 
G01 X-35.8346 Y43.4174 
G01 X-35.7733 Y43.5655 
G01 X-35.6842 Y43.6988 
G01 X-35.5708 Y43.8122 
G01 X-35.4375 Y43.9013 
G01 X-35.2894 Y43.9626 
G01 X-35.1322 Y43.9939 
G00 Z2.0000  
G00 X-35.1322 Y46.5339 
G01 Z-0.1000 F250   
G01 X-33.4477 Y46.5339 F650   
G01 X-33.2905 Y46.5026 
G01 X-33.1424 Y46.4413 
G01 X-33.0091 Y46.3522 
G01 X-32.9507 Y46.2937 
G01 X-25.9737 Y53.2706 
G01 X-26.0322 Y53.3291 
G01 X-26.1213 Y53.4624 
G01 X-26.1826 Y53.6105 
G01 X-26.2139 Y53.7677 
G01 X-26.2139 Y55.4522 
G01 X-26.1826 Y55.6094 
G01 X-26.1213 Y55.7575 
G01 X-26.0322 Y55.8908 
G01 X-25.9188 Y56.0042 
G01 X-25.7855 Y56.0933 
G01 X-25.6374 Y56.1546 
G01 X-25.4802 Y56.1859 
G01 X-25.3197 Y56.1859 
G01 X-25.1625 Y56.1546 
G01 X-25.0144 Y56.0933 
G01 X-24.8811 Y56.0042 
G01 X-24.7677 Y55.8908 
G01 X-24.6786 Y55.7575 
G01 X-24.6173 Y55.6094 
G01 X-24.5860 Y55.4522 
G01 X-24.5860 Y53.7677 
G01 X-24.6173 Y53.6105 
G01 X-24.6786 Y53.4624 
G01 X-24.7677 Y53.3291 
G01 X-24.8811 Y53.2157 
G01 X-25.0144 Y53.1266 
G01 X-25.1625 Y53.0653 
G01 X-25.1721 Y53.0634 
G01 X-32.7345 Y45.5009 
G01 X-32.7435 Y45.4920 
G01 X-32.7453 Y45.4825 
G01 X-32.8066 Y45.3344 
G01 X-32.8957 Y45.2011 
G01 X-33.0091 Y45.0877 
G01 X-33.1424 Y44.9986 
G01 X-33.2905 Y44.9373 
G01 X-33.4477 Y44.9060 
G01 X-35.1322 Y44.9060 
G01 X-35.2894 Y44.9373 
G01 X-35.4375 Y44.9986 
G01 X-35.5708 Y45.0877 
G01 X-35.6842 Y45.2011 
G01 X-35.7733 Y45.3344 
G01 X-35.8346 Y45.4825 
G01 X-35.8659 Y45.6397 
G01 X-35.8659 Y45.8002 
G01 X-35.8346 Y45.9574 
G01 X-35.7733 Y46.1055 
G01 X-35.6842 Y46.2388 
G01 X-35.5708 Y46.3522 
G01 X-35.4375 Y46.4413 
G01 X-35.2894 Y46.5026 
G01 X-35.1322 Y46.5339 
G00 Z2.0000  
G00 X-35.1322 Y49.0739 
G01 Z-0.1000 F250   
G01 X-33.4477 Y49.0739 F650   
G01 X-33.2905 Y49.0426 
G01 X-33.1424 Y48.9813 
G01 X-33.0091 Y48.8922 
G01 X-32.8957 Y48.7788 
G01 X-32.8066 Y48.6455 
G01 X-32.7453 Y48.4974 
G01 X-32.7140 Y48.3402 
G01 X-32.7140 Y48.1797 
G01 X-32.7453 Y48.0225 
G01 X-32.8066 Y47.8744 
G01 X-32.8957 Y47.7411 
G01 X-33.0091 Y47.6277 
G01 X-33.1424 Y47.5386 
G01 X-33.2905 Y47.4773 
G01 X-33.4477 Y47.4460 
G01 X-35.1322 Y47.4460 
G01 X-35.2894 Y47.4773 
G01 X-35.4375 Y47.5386 
G01 X-35.5708 Y47.6277 
G01 X-35.6842 Y47.7411 
G01 X-35.7733 Y47.8744 
G01 X-35.7852 Y47.9032 
G01 X-36.6822 Y47.9032 
G01 X-39.0132 Y45.5722 
G01 X-39.0132 Y42.2667 
G01 X-29.1629 Y42.2667 
G01 X-29.0722 Y42.2424 
G01 X-28.9909 Y42.1954 
G01 X-28.9245 Y42.1290 
G01 X-28.8775 Y42.0477 
G01 X-28.8532 Y41.9570 
G01 X-28.8532 Y41.8629 
G01 X-28.8532 Y34.6467 
G01 X-25.3529 Y34.6467 
G01 X-25.2622 Y34.6224 
G01 X-25.1809 Y34.5754 
G01 X-25.1145 Y34.5090 
G01 X-23.1695 Y32.5639 
G01 X-22.0177 Y32.5639 
G01 X-21.8605 Y32.5326 
G01 X-21.7124 Y32.4713 
G01 X-21.5791 Y32.3822 
G01 X-21.4657 Y32.2688 
G01 X-21.3766 Y32.1355 
G01 X-21.3153 Y31.9874 
G01 X-21.2840 Y31.8302 
G01 X-21.2840 Y31.6697 
G01 X-21.3153 Y31.5125 
G01 X-21.3766 Y31.3644 
G01 X-21.4657 Y31.2311 
G01 X-21.5791 Y31.1177 
G01 X-21.7124 Y31.0286 
G01 X-21.8605 Y30.9673 
G01 X-22.0177 Y30.9360 
G01 X-23.7022 Y30.9360 
G01 X-23.8594 Y30.9673 
G01 X-24.0075 Y31.0286 
G01 X-24.1408 Y31.1177 
G01 X-24.2542 Y31.2311 
G01 X-24.3433 Y31.3644 
G01 X-24.4046 Y31.5125 
G01 X-24.4359 Y31.6697 
G01 X-24.4359 Y31.8302 
G01 X-24.4046 Y31.9874 
G01 X-24.3433 Y32.1355 
G01 X-24.2542 Y32.2688 
G01 X-24.1408 Y32.3822 
G01 X-24.0543 Y32.4399 
G01 X-25.5476 Y33.9332 
G01 X-29.1629 Y33.9332 
G01 X-29.2570 Y33.9332 
G01 X-29.3477 Y33.9575 
G01 X-29.4290 Y34.0045 
G01 X-29.4954 Y34.0709 
G01 X-29.5424 Y34.1522 
G01 X-29.5667 Y34.2429 
G01 X-29.5667 Y41.5532 
G01 X-39.3229 Y41.5532 
G01 X-39.4170 Y41.5532 
G01 X-39.5077 Y41.5775 
G01 X-39.5890 Y41.6245 
G01 X-39.6554 Y41.6909 
G01 X-39.7024 Y41.7722 
G01 X-39.7267 Y41.8629 
G01 X-39.7267 Y45.6729 
G01 X-39.7267 Y45.7670 
G01 X-39.7024 Y45.8577 
G01 X-39.6554 Y45.9390 
G01 X-37.1154 Y48.4790 
G01 X-37.0490 Y48.5454 
G01 X-36.9677 Y48.5924 
G01 X-36.8770 Y48.6167 
G01 X-35.7852 Y48.6167 
G01 X-35.7733 Y48.6455 
G01 X-35.6842 Y48.7788 
G01 X-35.5708 Y48.8922 
G01 X-35.4375 Y48.9813 
G01 X-35.2894 Y49.0426 
G01 X-35.1322 Y49.0739 
G00 Z2.0000  
G00 X-35.1322 Y51.6139 
G01 Z-0.1000 F250   
G01 X-33.4477 Y51.6139 F650   
G01 X-33.2905 Y51.5826 
G01 X-33.1424 Y51.5213 
G01 X-33.0091 Y51.4322 
G01 X-32.9507 Y51.3737 
G01 X-25.9737 Y58.3507 
G01 X-26.0322 Y58.4091 
G01 X-26.1213 Y58.5424 
G01 X-26.1826 Y58.6905 
G01 X-26.2139 Y58.8477 
G01 X-26.2139 Y60.5322 
G01 X-26.1826 Y60.6894 
G01 X-26.1213 Y60.8375 
G01 X-26.0322 Y60.9708 
G01 X-25.9188 Y61.0842 
G01 X-25.7855 Y61.1733 
G01 X-25.6374 Y61.2346 
G01 X-25.4802 Y61.2659 
G01 X-25.3197 Y61.2659 
G01 X-25.1625 Y61.2346 
G01 X-25.0144 Y61.1733 
G01 X-24.8811 Y61.0842 
G01 X-24.7677 Y60.9708 
G01 X-24.6786 Y60.8375 
G01 X-24.6173 Y60.6894 
G01 X-24.5860 Y60.5322 
G01 X-24.5860 Y58.8477 
G01 X-24.6173 Y58.6905 
G01 X-24.6786 Y58.5424 
G01 X-24.7677 Y58.4091 
G01 X-24.8811 Y58.2957 
G01 X-25.0144 Y58.2066 
G01 X-25.1625 Y58.1453 
G01 X-25.1720 Y58.1435 
G01 X-32.7345 Y50.5809 
G01 X-32.7435 Y50.5720 
G01 X-32.7453 Y50.5625 
G01 X-32.8066 Y50.4144 
G01 X-32.8957 Y50.2811 
G01 X-33.0091 Y50.1677 
G01 X-33.1424 Y50.0786 
G01 X-33.2905 Y50.0173 
G01 X-33.4477 Y49.9860 
G01 X-35.1322 Y49.9860 
G01 X-35.2894 Y50.0173 
G01 X-35.4375 Y50.0786 
G01 X-35.5708 Y50.1677 
G01 X-35.6842 Y50.2811 
G01 X-35.7733 Y50.4144 
G01 X-35.8346 Y50.5625 
G01 X-35.8659 Y50.7197 
G01 X-35.8659 Y50.8802 
G01 X-35.8346 Y51.0374 
G01 X-35.7733 Y51.1855 
G01 X-35.6842 Y51.3188 
G01 X-35.5708 Y51.4322 
G01 X-35.4375 Y51.5213 
G01 X-35.2894 Y51.5826 
G01 X-35.1322 Y51.6139 
G00 Z2.0000  
G00 X-35.1322 Y54.1539 
G01 Z-0.1000 F250   
G01 X-33.4477 Y54.1539 F650   
G01 X-33.2905 Y54.1226 
G01 X-33.1424 Y54.0613 
G01 X-33.0091 Y53.9722 
G01 X-32.8957 Y53.8588 
G01 X-32.8066 Y53.7255 
G01 X-32.7453 Y53.5774 
G01 X-32.7140 Y53.4202 
G01 X-32.7140 Y53.2597 
G01 X-32.7453 Y53.1025 
G01 X-32.8066 Y52.9544 
G01 X-32.8957 Y52.8211 
G01 X-33.0091 Y52.7077 
G01 X-33.1424 Y52.6186 
G01 X-33.2905 Y52.5573 
G01 X-33.4477 Y52.5260 
G01 X-35.1322 Y52.5260 
G01 X-35.2894 Y52.5573 
G01 X-35.4375 Y52.6186 
G01 X-35.5708 Y52.7077 
G01 X-35.6842 Y52.8211 
G01 X-35.7733 Y52.9544 
G01 X-35.7852 Y52.9832 
G01 X-41.7622 Y52.9832 
G01 X-45.3632 Y49.3822 
G01 X-45.3632 Y33.0670 
G01 X-45.3632 Y32.9729 
G01 X-45.3875 Y32.8822 
G01 X-45.4345 Y32.8009 
G01 X-46.6332 Y31.6022 
G01 X-46.6332 Y25.4470 
G01 X-46.6332 Y25.3529 
G01 X-46.6575 Y25.2622 
G01 X-46.7045 Y25.1809 
G01 X-47.9745 Y23.9109 
G01 X-48.0409 Y23.8445 
G01 X-48.1222 Y23.7975 
G01 X-48.2129 Y23.7732 
G01 X-54.2532 Y23.7732 
G01 X-54.2532 Y15.3877 
G01 X-53.9160 Y15.0504 
G01 X-53.8933 Y15.0845 
G01 X-53.7941 Y15.1837 
G01 X-53.6774 Y15.2616 
G01 X-53.5478 Y15.3153 
G01 X-53.4102 Y15.3427 
G01 X-53.2697 Y15.3427 
G01 X-53.1321 Y15.3153 
G01 X-53.0025 Y15.2616 
G01 X-52.8858 Y15.1837 
G01 X-52.7866 Y15.0845 
G01 X-52.7087 Y14.9678 
G01 X-52.6550 Y14.8382 
G01 X-52.6276 Y14.7006 
G01 X-52.6276 Y13.2393 
G01 X-52.6550 Y13.1017 
G01 X-52.7087 Y12.9721 
G01 X-52.7866 Y12.8554 
G01 X-52.8858 Y12.7562 
G01 X-53.0025 Y12.6783 
G01 X-53.1321 Y12.6246 
G01 X-53.2697 Y12.5972 
G01 X-53.4102 Y12.5972 
G01 X-53.5478 Y12.6246 
G01 X-53.6774 Y12.6783 
G01 X-53.7941 Y12.7562 
G01 X-53.8933 Y12.8554 
G01 X-53.9712 Y12.9721 
G01 X-54.0249 Y13.1017 
G01 X-54.0523 Y13.2393 
G01 X-54.0523 Y14.1778 
G01 X-54.8954 Y15.0209 
G01 X-54.9424 Y15.1022 
G01 X-54.9667 Y15.1929 
G01 X-54.9667 Y15.2870 
G01 X-54.9667 Y24.1770 
G01 X-54.9424 Y24.2677 
G01 X-54.8954 Y24.3490 
G01 X-54.8290 Y24.4154 
G01 X-54.7477 Y24.4624 
G01 X-54.6570 Y24.4867 
G01 X-54.5629 Y24.4867 
G01 X-48.4077 Y24.4867 
G01 X-47.3467 Y25.5477 
G01 X-47.3467 Y31.7970 
G01 X-47.3224 Y31.8877 
G01 X-47.2754 Y31.9690 
G01 X-47.2090 Y32.0354 
G01 X-46.0767 Y33.1677 
G01 X-46.0767 Y49.5770 
G01 X-46.0524 Y49.6677 
G01 X-46.0054 Y49.7490 
G01 X-45.9390 Y49.8154 
G01 X-42.1290 Y53.6254 
G01 X-42.0477 Y53.6724 
G01 X-41.9570 Y53.6967 
G01 X-41.8629 Y53.6967 
G01 X-35.7852 Y53.6967 
G01 X-35.7733 Y53.7255 
G01 X-35.6842 Y53.8588 
G01 X-35.5708 Y53.9722 
G01 X-35.4375 Y54.0613 
G01 X-35.2894 Y54.1226 
G01 X-35.1322 Y54.1539 
G00 Z2.0000  
G00 X-35.1322 Y59.2339 
G01 Z-0.1000 F250   
G01 X-33.4477 Y59.2339 F650   
G01 X-33.2905 Y59.2026 
G01 X-33.1424 Y59.1413 
G01 X-33.0091 Y59.0522 
G01 X-32.8957 Y58.9388 
G01 X-32.8066 Y58.8055 
G01 X-32.7453 Y58.6574 
G01 X-32.7140 Y58.5002 
G01 X-32.7140 Y58.3397 
G01 X-32.7453 Y58.1825 
G01 X-32.8066 Y58.0344 
G01 X-32.8957 Y57.9011 
G01 X-33.0091 Y57.7877 
G01 X-33.1424 Y57.6986 
G01 X-33.2905 Y57.6373 
G01 X-33.4477 Y57.6060 
G01 X-35.1322 Y57.6060 
G01 X-35.2894 Y57.6373 
G01 X-35.4375 Y57.6986 
G01 X-35.5708 Y57.7877 
G01 X-35.6842 Y57.9011 
G01 X-35.7733 Y58.0344 
G01 X-35.8346 Y58.1825 
G01 X-35.8659 Y58.3397 
G01 X-35.8659 Y58.5002 
G01 X-35.8346 Y58.6574 
G01 X-35.7733 Y58.8055 
G01 X-35.6842 Y58.9388 
G01 X-35.5708 Y59.0522 
G01 X-35.4375 Y59.1413 
G01 X-35.2894 Y59.2026 
G01 X-35.1322 Y59.2339 
G00 Z2.0000  
G00 X-35.1322 Y61.7739 
G01 Z-0.1000 F250   
G01 X-33.4477 Y61.7739 F650   
G01 X-33.2905 Y61.7426 
G01 X-33.1424 Y61.6813 
G01 X-33.0091 Y61.5922 
G01 X-32.8957 Y61.4788 
G01 X-32.8066 Y61.3455 
G01 X-32.7453 Y61.1974 
G01 X-32.7140 Y61.0402 
G01 X-32.7140 Y60.8797 
G01 X-32.7453 Y60.7225 
G01 X-32.8066 Y60.5744 
G01 X-32.8957 Y60.4411 
G01 X-33.0091 Y60.3277 
G01 X-33.1424 Y60.2386 
G01 X-33.2905 Y60.1773 
G01 X-33.4477 Y60.1460 
G01 X-35.1322 Y60.1460 
G01 X-35.2894 Y60.1773 
G01 X-35.4375 Y60.2386 
G01 X-35.5708 Y60.3277 
G01 X-35.6842 Y60.4411 
G01 X-35.7733 Y60.5744 
G01 X-35.7852 Y60.6032 
G01 X-36.6822 Y60.6032 
G01 X-37.8809 Y59.4045 
G01 X-37.9622 Y59.3575 
G01 X-38.0529 Y59.3332 
G01 X-38.1470 Y59.3332 
G01 X-67.7856 Y59.3332 
G01 X-68.2428 Y58.8760 
G01 X-68.9171 Y58.8760 
G01 X-69.3939 Y59.3528 
G01 X-69.3939 Y60.0271 
G01 X-68.9171 Y60.5039 
G01 X-68.2428 Y60.5039 
G01 X-67.7856 Y60.0467 
G01 X-38.2477 Y60.0467 
G01 X-37.1154 Y61.1790 
G01 X-37.0490 Y61.2454 
G01 X-36.9677 Y61.2924 
G01 X-36.8770 Y61.3167 
G01 X-35.7852 Y61.3167 
G01 X-35.7733 Y61.3455 
G01 X-35.6842 Y61.4788 
G01 X-35.5708 Y61.5922 
G01 X-35.4375 Y61.6813 
G01 X-35.2894 Y61.7426 
G01 X-35.1322 Y61.7739 
G00 Z2.0000  
G00 X-55.0876 Y22.3284 
G01 Z-0.1000 F250   
G01 X-55.0876 Y20.8515 F650   
G01 X-55.1180 Y20.6984 
G01 X-55.1778 Y20.5542 
G01 X-55.2645 Y20.4244 
G01 X-55.3748 Y20.3141 
G01 X-55.5046 Y20.2274 
G01 X-55.6488 Y20.1676 
G01 X-55.8019 Y20.1372 
G01 X-55.9580 Y20.1372 
G01 X-56.1111 Y20.1676 
G01 X-56.2553 Y20.2274 
G01 X-56.3851 Y20.3141 
G01 X-56.4954 Y20.4244 
G01 X-56.5821 Y20.5542 
G01 X-56.6419 Y20.6984 
G01 X-56.6723 Y20.8515 
G01 X-56.6723 Y22.3284 
G01 X-56.6419 Y22.4815 
G01 X-56.5821 Y22.6257 
G01 X-56.4954 Y22.7555 
G01 X-56.3851 Y22.8658 
G01 X-56.2553 Y22.9525 
G01 X-56.1111 Y23.0123 
G01 X-55.9580 Y23.0427 
G01 X-55.8019 Y23.0427 
G01 X-55.6488 Y23.0123 
G01 X-55.5046 Y22.9525 
G01 X-55.3748 Y22.8658 
G01 X-55.2645 Y22.7555 
G01 X-55.1778 Y22.6257 
G01 X-55.1180 Y22.4815 
G01 X-55.0876 Y22.3284 
G00 Z2.0000  
G00 X-57.6276 Y22.3284 
G01 Z-0.1000 F250   
G01 X-57.6276 Y20.8515 F650   
G01 X-57.6580 Y20.6984 
G01 X-57.7178 Y20.5542 
G01 X-57.8045 Y20.4244 
G01 X-57.9148 Y20.3141 
G01 X-58.0446 Y20.2274 
G01 X-58.1888 Y20.1676 
G01 X-58.3419 Y20.1372 
G01 X-58.4980 Y20.1372 
G01 X-58.6511 Y20.1676 
G01 X-58.7953 Y20.2274 
G01 X-58.9251 Y20.3141 
G01 X-59.0354 Y20.4244 
G01 X-59.1221 Y20.5542 
G01 X-59.1819 Y20.6984 
G01 X-59.2123 Y20.8515 
G01 X-59.2123 Y22.3284 
G01 X-59.1819 Y22.4815 
G01 X-59.1221 Y22.6257 
G01 X-59.0354 Y22.7555 
G01 X-58.9251 Y22.8658 
G01 X-58.7953 Y22.9525 
G01 X-58.6511 Y23.0123 
G01 X-58.4980 Y23.0427 
G01 X-58.3419 Y23.0427 
G01 X-58.1888 Y23.0123 
G01 X-58.0446 Y22.9525 
G01 X-57.9148 Y22.8658 
G01 X-57.8045 Y22.7555 
G01 X-57.7178 Y22.6257 
G01 X-57.6580 Y22.4815 
G01 X-57.6276 Y22.3284 
G00 Z2.0000  
G00 X-60.1676 Y22.3284 
G01 Z-0.1000 F250   
G01 X-60.1676 Y20.8515 F650   
G01 X-60.1980 Y20.6984 
G01 X-60.2578 Y20.5542 
G01 X-60.3445 Y20.4244 
G01 X-60.4548 Y20.3141 
G01 X-60.5846 Y20.2274 
G01 X-60.7288 Y20.1676 
G01 X-60.8819 Y20.1372 
G01 X-61.0380 Y20.1372 
G01 X-61.1911 Y20.1676 
G01 X-61.3353 Y20.2274 
G01 X-61.4651 Y20.3141 
G01 X-61.5754 Y20.4244 
G01 X-61.6621 Y20.5542 
G01 X-61.7219 Y20.6984 
G01 X-61.7523 Y20.8515 
G01 X-61.7523 Y22.3284 
G01 X-61.7219 Y22.4815 
G01 X-61.6621 Y22.6257 
G01 X-61.5754 Y22.7555 
G01 X-61.4651 Y22.8658 
G01 X-61.3353 Y22.9525 
G01 X-61.1911 Y23.0123 
G01 X-61.0380 Y23.0427 
G01 X-60.8819 Y23.0427 
G01 X-60.7288 Y23.0123 
G01 X-60.5846 Y22.9525 
G01 X-60.4548 Y22.8658 
G01 X-60.3445 Y22.7555 
G01 X-60.2578 Y22.6257 
G01 X-60.1980 Y22.4815 
G01 X-60.1676 Y22.3284 
G00 Z2.0000  
G00 X-62.7076 Y22.3284 
G01 Z-0.1000 F250   
G01 X-62.7076 Y20.8515 F650   
G01 X-62.7380 Y20.6984 
G01 X-62.7978 Y20.5542 
G01 X-62.8845 Y20.4244 
G01 X-62.9948 Y20.3141 
G01 X-63.1246 Y20.2274 
G01 X-63.2688 Y20.1676 
G01 X-63.4219 Y20.1372 
G01 X-63.5780 Y20.1372 
G01 X-63.7311 Y20.1676 
G01 X-63.8753 Y20.2274 
G01 X-64.0051 Y20.3141 
G01 X-64.1154 Y20.4244 
G01 X-64.2021 Y20.5542 
G01 X-64.2619 Y20.6984 
G01 X-64.2923 Y20.8515 
G01 X-64.2923 Y22.3284 
G01 X-64.2619 Y22.4815 
G01 X-64.2021 Y22.6257 
G01 X-64.1154 Y22.7555 
G01 X-64.0051 Y22.8658 
G01 X-63.8753 Y22.9525 
G01 X-63.7311 Y23.0123 
G01 X-63.5780 Y23.0427 
G01 X-63.4219 Y23.0427 
G01 X-63.2688 Y23.0123 
G01 X-63.1246 Y22.9525 
G01 X-62.9948 Y22.8658 
G01 X-62.8845 Y22.7555 
G01 X-62.7978 Y22.6257 
G01 X-62.7380 Y22.4815 
G01 X-62.7076 Y22.3284 
G00 Z2.0000  
G00 X-65.2476 Y22.3284 
G01 Z-0.1000 F250   
G01 X-65.2476 Y20.8515 F650   
G01 X-65.2780 Y20.6984 
G01 X-65.3378 Y20.5542 
G01 X-65.4245 Y20.4244 
G01 X-65.5348 Y20.3141 
G01 X-65.6646 Y20.2274 
G01 X-65.8088 Y20.1676 
G01 X-65.9619 Y20.1372 
G01 X-66.1180 Y20.1372 
G01 X-66.2711 Y20.1676 
G01 X-66.4153 Y20.2274 
G01 X-66.5451 Y20.3141 
G01 X-66.6554 Y20.4244 
G01 X-66.7421 Y20.5542 
G01 X-66.8019 Y20.6984 
G01 X-66.8323 Y20.8515 
G01 X-66.8323 Y22.3284 
G01 X-66.8019 Y22.4815 
G01 X-66.7421 Y22.6257 
G01 X-66.6554 Y22.7555 
G01 X-66.5451 Y22.8658 
G01 X-66.4153 Y22.9525 
G01 X-66.2711 Y23.0123 
G01 X-66.1180 Y23.0427 
G01 X-65.9619 Y23.0427 
G01 X-65.8088 Y23.0123 
G01 X-65.6646 Y22.9525 
G01 X-65.5348 Y22.8658 
G01 X-65.4245 Y22.7555 
G01 X-65.3378 Y22.6257 
G01 X-65.2780 Y22.4815 
G01 X-65.2476 Y22.3284 
G00 Z2.0000  
G00 X-67.7876 Y22.3284 
G01 Z-0.1000 F250   
G01 X-67.7876 Y20.8515 F650   
G01 X-67.8180 Y20.6984 
G01 X-67.8778 Y20.5542 
G01 X-67.9645 Y20.4244 
G01 X-68.0748 Y20.3141 
G01 X-68.2046 Y20.2274 
G01 X-68.3488 Y20.1676 
G01 X-68.5019 Y20.1372 
G01 X-68.6580 Y20.1372 
G01 X-68.8111 Y20.1676 
G01 X-68.9553 Y20.2274 
G01 X-69.0851 Y20.3141 
G01 X-69.1954 Y20.4244 
G01 X-69.2821 Y20.5542 
G01 X-69.3419 Y20.6984 
G01 X-69.3723 Y20.8515 
G01 X-69.3723 Y22.3284 
G01 X-69.3419 Y22.4815 
G01 X-69.2821 Y22.6257 
G01 X-69.1954 Y22.7555 
G01 X-69.0851 Y22.8658 
G01 X-68.9553 Y22.9525 
G01 X-68.8111 Y23.0123 
G01 X-68.6580 Y23.0427 
G01 X-68.5019 Y23.0427 
G01 X-68.3488 Y23.0123 
G01 X-68.2046 Y22.9525 
G01 X-68.0748 Y22.8658 
G01 X-67.9645 Y22.7555 
G01 X-67.8778 Y22.6257 
G01 X-67.8180 Y22.4815 
G01 X-67.7876 Y22.3284 
G00 Z2.0000  
G00 X-70.3276 Y22.3284 
G01 Z-0.1000 F250   
G01 X-70.3276 Y20.8515 F650   
G01 X-70.3580 Y20.6984 
G01 X-70.4178 Y20.5542 
G01 X-70.5045 Y20.4244 
G01 X-70.6148 Y20.3141 
G01 X-70.7446 Y20.2274 
G01 X-70.8888 Y20.1676 
G01 X-71.0419 Y20.1372 
G01 X-71.1980 Y20.1372 
G01 X-71.3511 Y20.1676 
G01 X-71.4953 Y20.2274 
G01 X-71.6251 Y20.3141 
G01 X-71.7354 Y20.4244 
G01 X-71.8221 Y20.5542 
G01 X-71.8819 Y20.6984 
G01 X-71.9123 Y20.8515 
G01 X-71.9123 Y22.3284 
G01 X-71.8819 Y22.4815 
G01 X-71.8221 Y22.6257 
G01 X-71.7354 Y22.7555 
G01 X-71.6251 Y22.8658 
G01 X-71.4953 Y22.9525 
G01 X-71.3511 Y23.0123 
G01 X-71.1980 Y23.0427 
G01 X-71.0419 Y23.0427 
G01 X-70.8888 Y23.0123 
G01 X-70.7446 Y22.9525 
G01 X-70.6148 Y22.8658 
G01 X-70.5045 Y22.7555 
G01 X-70.4178 Y22.6257 
G01 X-70.3580 Y22.4815 
G01 X-70.3276 Y22.3284 
G00 Z2.0000  
G00 X-72.8676 Y22.3284 
G01 Z-0.1000 F250   
G01 X-72.8676 Y20.8515 F650   
G01 X-72.8980 Y20.6984 
G01 X-72.9578 Y20.5542 
G01 X-73.0445 Y20.4244 
G01 X-73.1548 Y20.3141 
G01 X-73.2846 Y20.2274 
G01 X-73.4288 Y20.1676 
G01 X-73.5819 Y20.1372 
G01 X-73.7380 Y20.1372 
G01 X-73.8911 Y20.1676 
G01 X-74.0353 Y20.2274 
G01 X-74.1651 Y20.3141 
G01 X-74.2754 Y20.4244 
G01 X-74.3621 Y20.5542 
G01 X-74.4219 Y20.6984 
G01 X-74.4523 Y20.8515 
G01 X-74.4523 Y22.3284 
G01 X-74.4219 Y22.4815 
G01 X-74.3621 Y22.6257 
G01 X-74.2754 Y22.7555 
G01 X-74.1651 Y22.8658 
G01 X-74.0967 Y22.9114 
G01 X-74.0967 Y31.5691 
G01 X-75.1981 Y32.6705 
G01 X-75.2794 Y32.7518 
G01 X-75.3369 Y32.8513 
G01 X-75.3667 Y32.9624 
G01 X-75.3667 Y64.8275 
G01 X-75.3667 Y73.6024 
G01 X-75.3667 Y73.7175 
G01 X-75.3369 Y73.8286 
G01 X-75.2794 Y73.9281 
G01 X-74.0094 Y75.1981 
G01 X-73.9281 Y75.2794 
G01 X-73.8286 Y75.3369 
G01 X-73.7175 Y75.3667 
G01 X-64.7124 Y75.3667 
G01 X-64.6013 Y75.3369 
G01 X-64.5018 Y75.2794 
G01 X-64.4205 Y75.1981 
G01 X-53.1591 Y63.9367 
G01 X-51.0753 Y63.9367 
G01 X-50.9863 Y64.0698 
G01 X-50.8618 Y64.1943 
G01 X-50.7154 Y64.2922 
G01 X-50.5527 Y64.3595 
G01 X-50.3800 Y64.3939 
G01 X-48.6799 Y64.3939 
G01 X-48.5072 Y64.3595 
G01 X-48.3445 Y64.2922 
G01 X-48.1981 Y64.1943 
G01 X-48.0736 Y64.0698 
G01 X-47.9846 Y63.9367 
G01 X-47.1708 Y63.9367 
G01 X-46.1567 Y64.9508 
G01 X-46.1567 Y72.4475 
G01 X-46.1269 Y72.5586 
G01 X-46.0694 Y72.6581 
G01 X-45.9881 Y72.7394 
G01 X-43.4481 Y75.2794 
G01 X-43.3486 Y75.3369 
G01 X-43.2375 Y75.3667 
G01 X-43.1224 Y75.3667 
G01 X-26.6124 Y75.3667 
G01 X-26.5013 Y75.3369 
G01 X-26.4018 Y75.2794 
G01 X-26.3205 Y75.1981 
G01 X-25.6105 Y74.4881 
G01 X-25.5530 Y74.3886 
G01 X-25.5232 Y74.2775 
G01 X-25.5232 Y74.1624 
G01 X-25.5232 Y73.7324 
G01 X-25.4198 Y73.6988 
G01 X-25.2225 Y73.5983 
G01 X-25.0434 Y73.4681 
G01 X-24.8868 Y73.3115 
G01 X-24.7566 Y73.1324 
G01 X-24.6561 Y72.9351 
G01 X-24.5876 Y72.7244 
G01 X-24.5530 Y72.5057 
G01 X-24.5530 Y69.7342 
G01 X-24.5685 Y69.6361 
G01 X-23.9491 Y69.0167 
G01 X-17.8375 Y69.0167 
G01 X-17.7224 Y69.0167 
G01 X-17.6113 Y68.9869 
G01 X-17.5118 Y68.9294 
G01 X-17.4305 Y68.8481 
G01 X-17.3730 Y68.7486 
G01 X-17.3432 Y68.6375 
G01 X-17.3432 Y43.2375 
G01 X-17.3432 Y43.1224 
G01 X-17.3730 Y43.0113 
G01 X-17.4305 Y42.9118 
G01 X-20.6960 Y39.6464 
G01 X-20.6960 Y38.5199 
G01 X-20.7304 Y38.3472 
G01 X-20.7977 Y38.1845 
G01 X-20.8956 Y38.0381 
G01 X-21.0201 Y37.9136 
G01 X-21.1665 Y37.8157 
G01 X-21.3292 Y37.7484 
G01 X-21.5019 Y37.7140 
G01 X-21.6780 Y37.7140 
G01 X-21.8507 Y37.7484 
G01 X-22.0134 Y37.8157 
G01 X-22.1598 Y37.9136 
G01 X-22.2843 Y38.0381 
G01 X-22.3822 Y38.1845 
G01 X-22.4495 Y38.3472 
G01 X-22.4839 Y38.5199 
G01 X-22.4839 Y40.2200 
G01 X-22.4495 Y40.3927 
G01 X-22.3822 Y40.5554 
G01 X-22.2843 Y40.7018 
G01 X-22.1598 Y40.8263 
G01 X-22.0134 Y40.9242 
G01 X-21.8507 Y40.9915 
G01 X-21.6780 Y41.0259 
G01 X-21.5019 Y41.0259 
G01 X-21.3292 Y40.9915 
G01 X-21.1665 Y40.9242 
G01 X-21.0201 Y40.8263 
G01 X-20.8956 Y40.7018 
G01 X-20.8876 Y40.6898 
G01 X-18.2167 Y43.3608 
G01 X-18.2167 Y68.1432 
G01 X-24.0723 Y68.1432 
G01 X-24.1875 Y68.1432 
G01 X-24.2986 Y68.1730 
G01 X-24.3981 Y68.2305 
G01 X-24.9914 Y68.8239 
G01 X-25.0434 Y68.7718 
G01 X-25.2225 Y68.6416 
G01 X-25.4198 Y68.5411 
G01 X-25.6305 Y68.4726 
G01 X-25.8492 Y68.4380 
G01 X-26.0707 Y68.4380 
G01 X-26.2894 Y68.4726 
G01 X-26.5001 Y68.5411 
G01 X-26.6974 Y68.6416 
G01 X-26.8765 Y68.7718 
G01 X-27.0331 Y68.9284 
G01 X-27.1633 Y69.1075 
G01 X-27.2638 Y69.3048 
G01 X-27.3323 Y69.5155 
G01 X-27.3669 Y69.7342 
G01 X-27.3669 Y72.5057 
G01 X-27.3323 Y72.7244 
G01 X-27.2638 Y72.9351 
G01 X-27.1633 Y73.1324 
G01 X-27.0331 Y73.3115 
G01 X-26.8765 Y73.4681 
G01 X-26.6974 Y73.5983 
G01 X-26.5001 Y73.6988 
G01 X-26.3967 Y73.7324 
G01 X-26.3967 Y74.0391 
G01 X-26.8508 Y74.4932 
G01 X-42.9991 Y74.4932 
G01 X-45.2832 Y72.2091 
G01 X-45.2832 Y64.8275 
G01 X-45.2832 Y64.7124 
G01 X-45.3130 Y64.6013 
G01 X-45.3705 Y64.5018 
G01 X-46.6405 Y63.2318 
G01 X-46.7218 Y63.1505 
G01 X-46.8213 Y63.0930 
G01 X-46.9324 Y63.0632 
G01 X-47.9846 Y63.0632 
G01 X-48.0736 Y62.9301 
G01 X-48.1981 Y62.8056 
G01 X-48.3445 Y62.7077 
G01 X-48.4438 Y62.6667 
G01 X-38.2808 Y62.6667 
G01 X-37.1794 Y63.7681 
G01 X-37.0981 Y63.8494 
G01 X-36.9986 Y63.9069 
G01 X-36.8875 Y63.9367 
G01 X-35.8352 Y63.9367 
G01 X-35.7463 Y64.0698 
G01 X-35.6218 Y64.1943 
G01 X-35.4754 Y64.2922 
G01 X-35.3127 Y64.3595 
G01 X-35.1400 Y64.3939 
G01 X-33.4399 Y64.3939 
G01 X-33.2672 Y64.3595 
G01 X-33.1045 Y64.2922 
G01 X-32.9581 Y64.1943 
G01 X-32.8336 Y64.0698 
G01 X-32.7357 Y63.9234 
G01 X-32.6684 Y63.7607 
G01 X-32.6340 Y63.5880 
G01 X-32.6340 Y63.4119 
G01 X-32.6684 Y63.2392 
G01 X-32.7357 Y63.0765 
G01 X-32.8336 Y62.9301 
G01 X-32.9581 Y62.8056 
G01 X-33.1045 Y62.7077 
G01 X-33.2672 Y62.6404 
G01 X-33.4399 Y62.6060 
G01 X-35.1400 Y62.6060 
G01 X-35.3127 Y62.6404 
G01 X-35.4754 Y62.7077 
G01 X-35.6218 Y62.8056 
G01 X-35.7463 Y62.9301 
G01 X-35.8352 Y63.0632 
G01 X-36.6491 Y63.0632 
G01 X-37.8318 Y61.8805 
G01 X-37.9313 Y61.8230 
G01 X-38.0424 Y61.7932 
G01 X-38.1575 Y61.7932 
G01 X-48.4438 Y61.7932 
G01 X-48.3445 Y61.7522 
G01 X-48.1981 Y61.6543 
G01 X-48.0736 Y61.5298 
G01 X-47.9757 Y61.3834 
G01 X-47.9084 Y61.2207 
G01 X-47.8740 Y61.0480 
G01 X-47.8740 Y60.8719 
G01 X-47.9084 Y60.6992 
G01 X-47.9757 Y60.5365 
G01 X-48.0736 Y60.3901 
G01 X-48.1981 Y60.2656 
G01 X-48.3445 Y60.1677 
G01 X-48.4438 Y60.1267 
G01 X-38.2808 Y60.1267 
G01 X-37.1794 Y61.2281 
G01 X-37.0981 Y61.3094 
G01 X-36.9986 Y61.3669 
G01 X-36.8875 Y61.3967 
G01 X-35.8353 Y61.3967 
G01 X-35.7463 Y61.5298 
G01 X-35.6218 Y61.6543 
G01 X-35.4754 Y61.7522 
G01 X-35.3127 Y61.8195 
G01 X-35.1400 Y61.8539 
G01 X-33.4399 Y61.8539 
G01 X-33.2672 Y61.8195 
G01 X-33.1045 Y61.7522 
G01 X-32.9581 Y61.6543 
G01 X-32.8336 Y61.5298 
G01 X-32.7357 Y61.3834 
G01 X-32.6684 Y61.2207 
G01 X-32.6340 Y61.0480 
G01 X-32.6340 Y60.8719 
G01 X-32.6684 Y60.6992 
G01 X-32.7357 Y60.5365 
G01 X-32.8336 Y60.3901 
G01 X-32.9581 Y60.2656 
G01 X-33.1045 Y60.1677 
G01 X-33.2672 Y60.1004 
G01 X-33.4399 Y60.0660 
G01 X-35.1400 Y60.0660 
G01 X-35.3127 Y60.1004 
G01 X-35.4754 Y60.1677 
G01 X-35.6218 Y60.2656 
G01 X-35.7463 Y60.3901 
G01 X-35.8353 Y60.5232 
G01 X-36.6491 Y60.5232 
G01 X-37.8318 Y59.3405 
G01 X-37.9313 Y59.2830 
G01 X-38.0424 Y59.2532 
G01 X-38.1575 Y59.2532 
G01 X-48.4438 Y59.2532 
G01 X-48.3445 Y59.2122 
G01 X-48.1981 Y59.1143 
G01 X-48.0736 Y58.9898 
G01 X-47.9757 Y58.8434 
G01 X-47.9084 Y58.6807 
G01 X-47.8740 Y58.5080 
G01 X-47.8740 Y58.3319 
G01 X-47.9084 Y58.1592 
G01 X-47.9757 Y57.9965 
G01 X-48.0736 Y57.8501 
G01 X-48.1981 Y57.7256 
G01 X-48.3445 Y57.6277 
G01 X-48.4438 Y57.5867 
G01 X-43.1224 Y57.5867 
G01 X-43.0113 Y57.5569 
G01 X-42.9118 Y57.4994 
G01 X-42.8305 Y57.4181 
G01 X-41.7291 Y56.3167 
G01 X-35.8353 Y56.3167 
G01 X-35.7463 Y56.4498 
G01 X-35.6218 Y56.5743 
G01 X-35.4754 Y56.6722 
G01 X-35.3127 Y56.7395 
G01 X-35.1400 Y56.7739 
G01 X-33.4399 Y56.7739 
G01 X-33.2672 Y56.7395 
G01 X-33.1045 Y56.6722 
G01 X-32.9581 Y56.5743 
G01 X-32.8336 Y56.4498 
G01 X-32.7446 Y56.3167 
G01 X-31.9308 Y56.3167 
G01 X-29.6467 Y58.6008 
G01 X-29.6467 Y64.5891 
G01 X-30.2694 Y65.2118 
G01 X-30.3269 Y65.3113 
G01 X-30.3567 Y65.4224 
G01 X-30.3567 Y65.5375 
G01 X-30.3567 Y68.5075 
G01 X-30.4601 Y68.5411 
G01 X-30.6574 Y68.6416 
G01 X-30.8365 Y68.7718 
G01 X-30.9931 Y68.9284 
G01 X-31.1233 Y69.1075 
G01 X-31.2238 Y69.3048 
G01 X-31.2923 Y69.5155 
G01 X-31.3269 Y69.7342 
G01 X-31.3269 Y72.5057 
G01 X-31.2923 Y72.7244 
G01 X-31.2238 Y72.9351 
G01 X-31.1233 Y73.1324 
G01 X-30.9931 Y73.3115 
G01 X-30.8365 Y73.4681 
G01 X-30.6574 Y73.5983 
G01 X-30.4601 Y73.6988 
G01 X-30.2494 Y73.7673 
G01 X-30.0307 Y73.8019 
G01 X-29.8092 Y73.8019 
G01 X-29.5905 Y73.7673 
G01 X-29.3798 Y73.6988 
G01 X-29.1825 Y73.5983 
G01 X-29.0034 Y73.4681 
G01 X-28.8468 Y73.3115 
G01 X-28.7166 Y73.1324 
G01 X-28.6161 Y72.9351 
G01 X-28.5476 Y72.7244 
G01 X-28.5130 Y72.5057 
G01 X-28.5130 Y69.7342 
G01 X-28.5476 Y69.5155 
G01 X-28.6161 Y69.3048 
G01 X-28.7166 Y69.1075 
G01 X-28.8468 Y68.9284 
G01 X-29.0034 Y68.7718 
G01 X-29.1825 Y68.6416 
G01 X-29.3798 Y68.5411 
G01 X-29.4832 Y68.5075 
G01 X-29.4832 Y65.6608 
G01 X-29.0291 Y65.2067 
G01 X-20.3775 Y65.2067 
G01 X-20.2624 Y65.2067 
G01 X-20.1513 Y65.1769 
G01 X-20.0518 Y65.1194 
G01 X-19.9705 Y65.0381 
G01 X-19.9130 Y64.9386 
G01 X-19.8832 Y64.8275 
G01 X-19.8832 Y61.2353 
G01 X-19.7501 Y61.1463 
G01 X-19.6256 Y61.0218 
G01 X-19.5277 Y60.8754 
G01 X-19.4604 Y60.7127 
G01 X-19.4260 Y60.5400 
G01 X-19.4260 Y58.8399 
G01 X-19.4604 Y58.6672 
G01 X-19.5277 Y58.5045 
G01 X-19.6256 Y58.3581 
G01 X-19.7501 Y58.2336 
G01 X-19.8832 Y58.1446 
G01 X-19.8832 Y56.1553 
G01 X-19.7501 Y56.0663 
G01 X-19.6256 Y55.9418 
G01 X-19.5277 Y55.7954 
G01 X-19.4604 Y55.6327 
G01 X-19.4260 Y55.4600 
G01 X-19.4260 Y53.7599 
G01 X-19.4604 Y53.5872 
G01 X-19.5277 Y53.4245 
G01 X-19.6256 Y53.2781 
G01 X-19.7501 Y53.1536 
G01 X-19.8832 Y53.0646 
G01 X-19.8832 Y51.0753 
G01 X-19.7501 Y50.9863 
G01 X-19.6256 Y50.8618 
G01 X-19.5277 Y50.7154 
G01 X-19.4604 Y50.5527 
G01 X-19.4260 Y50.3800 
G01 X-19.4260 Y48.6799 
G01 X-19.4604 Y48.5072 
G01 X-19.5277 Y48.3445 
G01 X-19.6256 Y48.1981 
G01 X-19.7501 Y48.0736 
G01 X-19.8832 Y47.9846 
G01 X-19.8832 Y46.9324 
G01 X-19.9130 Y46.8213 
G01 X-19.9705 Y46.7218 
G01 X-20.0518 Y46.6405 
G01 X-24.9632 Y41.7291 
G01 X-24.9632 Y40.4561 
G01 X-24.9222 Y40.5554 
G01 X-24.8243 Y40.7018 
G01 X-24.6998 Y40.8263 
G01 X-24.5534 Y40.9242 
G01 X-24.3907 Y40.9915 
G01 X-24.2180 Y41.0259 
G01 X-24.0419 Y41.0259 
G01 X-23.8692 Y40.9915 
G01 X-23.7065 Y40.9242 
G01 X-23.5601 Y40.8263 
G01 X-23.4356 Y40.7018 
G01 X-23.3377 Y40.5554 
G01 X-23.2704 Y40.3927 
G01 X-23.2360 Y40.2200 
G01 X-23.2360 Y38.5199 
G01 X-23.2704 Y38.3472 
G01 X-23.3377 Y38.1845 
G01 X-23.4356 Y38.0381 
G01 X-23.4431 Y38.0306 
G01 X-22.6792 Y37.2667 
G01 X-17.8375 Y37.2667 
G01 X-17.7224 Y37.2667 
G01 X-17.6113 Y37.2369 
G01 X-17.5118 Y37.1794 
G01 X-17.4305 Y37.0981 
G01 X-17.3730 Y36.9986 
G01 X-17.3432 Y36.8875 
G01 X-17.3432 Y15.2975 
G01 X-17.3432 Y15.1824 
G01 X-17.3730 Y15.0713 
G01 X-17.4305 Y14.9718 
G01 X-19.9705 Y12.4318 
G01 X-20.0518 Y12.3505 
G01 X-20.1513 Y12.2930 
G01 X-20.2624 Y12.2632 
G01 X-44.3924 Y12.2632 
G01 X-44.5075 Y12.2632 
G01 X-44.6186 Y12.2930 
G01 X-44.7181 Y12.3505 
G01 X-52.7582 Y20.3907 
G01 X-52.8348 Y20.3141 
G01 X-52.9646 Y20.2274 
G01 X-53.1088 Y20.1676 
G01 X-53.2619 Y20.1372 
G01 X-53.4180 Y20.1372 
G01 X-53.5711 Y20.1676 
G01 X-53.7153 Y20.2274 
G01 X-53.8451 Y20.3141 
G01 X-53.9554 Y20.4244 
G01 X-54.0421 Y20.5542 
G01 X-54.1019 Y20.6984 
G01 X-54.1323 Y20.8515 
G01 X-54.1323 Y22.3284 
G01 X-54.1019 Y22.4815 
G01 X-54.0421 Y22.6257 
G01 X-53.9554 Y22.7555 
G01 X-53.8451 Y22.8658 
G01 X-53.7153 Y22.9525 
G01 X-53.5711 Y23.0123 
G01 X-53.4180 Y23.0427 
G01 X-53.2619 Y23.0427 
G01 X-53.1088 Y23.0123 
G01 X-52.9646 Y22.9525 
G01 X-52.8348 Y22.8658 
G01 X-52.7245 Y22.7555 
G01 X-52.6378 Y22.6257 
G01 X-52.5780 Y22.4815 
G01 X-52.5476 Y22.3284 
G01 X-52.5476 Y21.4151 
G01 X-44.2691 Y13.1367 
G01 X-20.5008 Y13.1367 
G01 X-18.2167 Y15.4208 
G01 X-18.2167 Y36.3932 
G01 X-22.9175 Y36.3932 
G01 X-23.0286 Y36.4230 
G01 X-23.1281 Y36.4805 
G01 X-23.2094 Y36.5618 
G01 X-24.3997 Y37.7522 
G01 X-24.5534 Y37.8157 
G01 X-24.6998 Y37.9136 
G01 X-24.8243 Y38.0381 
G01 X-24.9222 Y38.1845 
G01 X-24.9632 Y38.2838 
G01 X-24.9632 Y35.9967 
G01 X-22.8024 Y35.9967 
G01 X-22.6913 Y35.9669 
G01 X-22.5918 Y35.9094 
G01 X-22.5105 Y35.8281 
G01 X-18.7005 Y32.0181 
G01 X-18.6430 Y31.9186 
G01 X-18.6132 Y31.8075 
G01 X-18.6132 Y31.6924 
G01 X-18.6132 Y17.7224 
G01 X-18.6430 Y17.6113 
G01 X-18.7005 Y17.5118 
G01 X-18.7818 Y17.4305 
G01 X-20.0518 Y16.1605 
G01 X-20.1513 Y16.1030 
G01 X-20.2624 Y16.0732 
G01 X-20.3775 Y16.0732 
G01 X-21.3146 Y16.0732 
G01 X-21.4036 Y15.9401 
G01 X-21.5281 Y15.8156 
G01 X-21.6745 Y15.7177 
G01 X-21.8372 Y15.6504 
G01 X-22.0099 Y15.6160 
G01 X-23.7100 Y15.6160 
G01 X-23.8827 Y15.6504 
G01 X-24.0454 Y15.7177 
G01 X-24.1918 Y15.8156 
G01 X-24.3163 Y15.9401 
G01 X-24.4142 Y16.0865 
G01 X-24.4815 Y16.2492 
G01 X-24.5159 Y16.4219 
G01 X-24.5159 Y16.5980 
G01 X-24.4815 Y16.7707 
G01 X-24.4142 Y16.9334 
G01 X-24.3163 Y17.0798 
G01 X-24.1918 Y17.2043 
G01 X-24.0454 Y17.3022 
G01 X-23.8827 Y17.3695 
G01 X-23.7100 Y17.4039 
G01 X-22.0099 Y17.4039 
G01 X-21.8372 Y17.3695 
G01 X-21.6745 Y17.3022 
G01 X-21.5281 Y17.2043 
G01 X-21.4036 Y17.0798 
G01 X-21.3146 Y16.9467 
G01 X-20.5008 Y16.9467 
G01 X-19.4867 Y17.9608 
G01 X-19.4867 Y31.5691 
G01 X-23.0408 Y35.1232 
G01 X-25.3424 Y35.1232 
G01 X-25.4575 Y35.1232 
G01 X-25.5686 Y35.1530 
G01 X-25.6681 Y35.2105 
G01 X-25.7494 Y35.2918 
G01 X-25.8069 Y35.3913 
G01 X-25.8367 Y35.5024 
G01 X-25.8367 Y38.2838 
G01 X-25.8777 Y38.1845 
G01 X-25.9756 Y38.0381 
G01 X-26.1001 Y37.9136 
G01 X-26.2465 Y37.8157 
G01 X-26.4092 Y37.7484 
G01 X-26.5819 Y37.7140 
G01 X-26.7580 Y37.7140 
G01 X-26.9307 Y37.7484 
G01 X-27.0934 Y37.8157 
G01 X-27.2398 Y37.9136 
G01 X-27.3643 Y38.0381 
G01 X-27.4622 Y38.1845 
G01 X-27.5295 Y38.3472 
G01 X-27.5639 Y38.5199 
G01 X-27.5639 Y40.2200 
G01 X-27.5295 Y40.3927 
G01 X-27.4622 Y40.5554 
G01 X-27.3643 Y40.7018 
G01 X-27.2398 Y40.8263 
G01 X-27.1067 Y40.9153 
G01 X-27.1067 Y43.1224 
G01 X-27.1067 Y43.2375 
G01 X-27.0769 Y43.3486 
G01 X-27.0194 Y43.4481 
G01 X-23.2967 Y47.1708 
G01 X-23.2967 Y47.9846 
G01 X-23.4298 Y48.0736 
G01 X-23.5543 Y48.1981 
G01 X-23.6522 Y48.3445 
G01 X-23.7195 Y48.5072 
G01 X-23.7539 Y48.6799 
G01 X-23.7539 Y50.3800 
G01 X-23.7195 Y50.5527 
G01 X-23.6522 Y50.7154 
G01 X-23.5543 Y50.8618 
G01 X-23.4298 Y50.9863 
G01 X-23.2967 Y51.0753 
G01 X-23.2967 Y53.0646 
G01 X-23.4298 Y53.1536 
G01 X-23.5543 Y53.2781 
G01 X-23.6522 Y53.4245 
G01 X-23.7195 Y53.5872 
G01 X-23.7539 Y53.7599 
G01 X-23.7539 Y55.4600 
G01 X-23.7195 Y55.6327 
G01 X-23.6522 Y55.7954 
G01 X-23.5543 Y55.9418 
G01 X-23.4298 Y56.0663 
G01 X-23.2967 Y56.1553 
G01 X-23.2967 Y58.1446 
G01 X-23.4298 Y58.2336 
G01 X-23.5543 Y58.3581 
G01 X-23.6522 Y58.5045 
G01 X-23.7195 Y58.6672 
G01 X-23.7539 Y58.8399 
G01 X-23.7539 Y60.5400 
G01 X-23.7195 Y60.7127 
G01 X-23.6522 Y60.8754 
G01 X-23.5543 Y61.0218 
G01 X-23.4298 Y61.1463 
G01 X-23.2834 Y61.2442 
G01 X-23.1207 Y61.3115 
G01 X-22.9480 Y61.3459 
G01 X-22.7719 Y61.3459 
G01 X-22.5992 Y61.3115 
G01 X-22.4365 Y61.2442 
G01 X-22.2901 Y61.1463 
G01 X-22.1656 Y61.0218 
G01 X-22.0677 Y60.8754 
G01 X-22.0004 Y60.7127 
G01 X-21.9660 Y60.5400 
G01 X-21.9660 Y58.8399 
G01 X-22.0004 Y58.6672 
G01 X-22.0677 Y58.5045 
G01 X-22.1656 Y58.3581 
G01 X-22.2901 Y58.2336 
G01 X-22.4232 Y58.1446 
G01 X-22.4232 Y56.1553 
G01 X-22.2901 Y56.0663 
G01 X-22.1656 Y55.9418 
G01 X-22.0677 Y55.7954 
G01 X-22.0004 Y55.6327 
G01 X-21.9660 Y55.4600 
G01 X-21.9660 Y53.7599 
G01 X-22.0004 Y53.5872 
G01 X-22.0677 Y53.4245 
G01 X-22.1656 Y53.2781 
G01 X-22.2901 Y53.1536 
G01 X-22.4232 Y53.0646 
G01 X-22.4232 Y51.0753 
G01 X-22.2901 Y50.9863 
G01 X-22.1656 Y50.8618 
G01 X-22.0677 Y50.7154 
G01 X-22.0004 Y50.5527 
G01 X-21.9660 Y50.3800 
G01 X-21.9660 Y48.6799 
G01 X-22.0004 Y48.5072 
G01 X-22.0677 Y48.3445 
G01 X-22.1656 Y48.1981 
G01 X-22.2901 Y48.0736 
G01 X-22.4232 Y47.9846 
G01 X-22.4232 Y46.9324 
G01 X-22.4530 Y46.8213 
G01 X-22.5105 Y46.7218 
G01 X-22.5918 Y46.6405 
G01 X-26.2332 Y42.9991 
G01 X-26.2332 Y40.9153 
G01 X-26.1001 Y40.8263 
G01 X-25.9756 Y40.7018 
G01 X-25.8777 Y40.5554 
G01 X-25.8367 Y40.4561 
G01 X-25.8367 Y41.8524 
G01 X-25.8367 Y41.9675 
G01 X-25.8069 Y42.0786 
G01 X-25.7494 Y42.1781 
G01 X-20.7567 Y47.1708 
