(.../EAGLE-5.11.0/ulp/pcb-gcode.ulp)
(Copyright 2005 - 2009 by John Johnson)
(See readme.txt for licensing terms.)
(This file generated from the board:)
(.../FreeSmoke nano 2.0/untitled.brd)
(Current profile is .../EAGLE-5.11.0/ulp/profiles/mach.pp  )
(This file generated 01.06.2012 00:04:31)
(Settings from pcb-machine.h)
(  Tool Size)
(0.1000  )
(Z Axis Settings)
(  High     Up        Down     Drill)
(10.0000 	2.0000  	-0.1000 	-1.5000 )
(spindle on time = 3.0000)
(milling depth = -1.3000)
(text depth = -0.2000)
(tool change at 20.0000 20.0000 20.0000 )
(feed rate xy = F650   )
(feed rate z  = F250   )
(Settings from pcb-defaults.h)
(Default isolate = 0.0020)
(isolate max = 0.1600)
(isolate step = 0.0800)
(Generated bottom outlines, bottom drill, )
(Unit of measure: mm)
( Tool|       Size       |  Min Sub |  Max Sub |   Count )
( T01 | 0.800mm 0.0315in | 0.0000in | 0.0000in |       0 )
( T02 | 0.813mm 0.0320in | 0.0000in | 0.0000in |       0 )
( T03 | 1.016mm 0.0400in | 0.0000in | 0.0000in |       0 )
( T04 | 1.700mm 0.0669in | 0.0000in | 0.0000in |       0 )
( T05 | 1.778mm 0.0700in | 0.0000in | 0.0000in |       0 )
(Metric Mode)
G21
(Absolute Coordinates)
G90
M05
G00 Z20.0000 
G00 X20.0000 Y20.0000 
M06 T01  ; 0.8000  
G00 Z2.0000  
M03
G04 P3.000000
G00 X-34.2900 Y27.9400 
G01 Z-1.5000 F250   
G00 Z2.0000  
G00 X-34.2900 Y30.4800 
G01 Z-1.5000 F250   
G00 Z2.0000  
G00 X-34.2900 Y33.0200 
G01 Z-1.5000 F250   
G00 Z2.0000  
G00 X-34.2900 Y35.5600 
G01 Z-1.5000 F250   
G00 Z2.0000  
G00 X-34.2900 Y38.1000 
G01 Z-1.5000 F250   
G00 Z2.0000  
G00 X-34.2900 Y40.6400 
G01 Z-1.5000 F250   
G00 Z2.0000  
G00 X-34.2900 Y43.1800 
G01 Z-1.5000 F250   
G00 Z2.0000  
G00 X-34.2900 Y45.7200 
G01 Z-1.5000 F250   
G00 Z2.0000  
G00 X-34.2900 Y48.2600 
G01 Z-1.5000 F250   
G00 Z2.0000  
G00 X-34.2900 Y50.8000 
G01 Z-1.5000 F250   
G00 Z2.0000  
G00 X-34.2900 Y53.3400 
G01 Z-1.5000 F250   
G00 Z2.0000  
G00 X-34.2900 Y55.8800 
G01 Z-1.5000 F250   
G00 Z2.0000  
G00 X-34.2900 Y58.4200 
G01 Z-1.5000 F250   
G00 Z2.0000  
G00 X-34.2900 Y60.9600 
G01 Z-1.5000 F250   
G00 Z2.0000  
G00 X-34.2900 Y63.5000 
G01 Z-1.5000 F250   
G00 Z2.0000  
G00 X-49.5300 Y27.9400 
G01 Z-1.5000 F250   
G00 Z2.0000  
G00 X-49.5300 Y30.4800 
G01 Z-1.5000 F250   
G00 Z2.0000  
G00 X-49.5300 Y33.0200 
G01 Z-1.5000 F250   
G00 Z2.0000  
G00 X-49.5300 Y35.5600 
G01 Z-1.5000 F250   
G00 Z2.0000  
G00 X-49.5300 Y38.1000 
G01 Z-1.5000 F250   
G00 Z2.0000  
G00 X-49.5300 Y40.6400 
G01 Z-1.5000 F250   
G00 Z2.0000  
G00 X-49.5300 Y43.1800 
G01 Z-1.5000 F250   
G00 Z2.0000  
G00 X-49.5300 Y45.7200 
G01 Z-1.5000 F250   
G00 Z2.0000  
G00 X-49.5300 Y48.2600 
G01 Z-1.5000 F250   
G00 Z2.0000  
G00 X-49.5300 Y50.8000 
G01 Z-1.5000 F250   
G00 Z2.0000  
G00 X-49.5300 Y53.3400 
G01 Z-1.5000 F250   
G00 Z2.0000  
G00 X-49.5300 Y55.8800 
G01 Z-1.5000 F250   
G00 Z2.0000  
G00 X-49.5300 Y58.4200 
G01 Z-1.5000 F250   
G00 Z2.0000  
G00 X-49.5300 Y60.9600 
G01 Z-1.5000 F250   
G00 Z2.0000  
G00 X-49.5300 Y63.5000 
G01 Z-1.5000 F250   
G00 Z2.0000  
M05
G00 Z20.0000 
G00 X20.0000 Y20.0000 
M06 T02  ; 0.8128  
G00 Z2.0000  
M03
G04 P3.000000
G00 X-53.3400 Y13.9700 
G01 Z-1.5000 F250   
G00 Z2.0000  
G00 X-53.3400 Y21.5900 
G01 Z-1.5000 F250   
G00 Z2.0000  
G00 X-55.8800 Y13.9700 
G01 Z-1.5000 F250   
G00 Z2.0000  
G00 X-55.8800 Y21.5900 
G01 Z-1.5000 F250   
G00 Z2.0000  
G00 X-58.4200 Y13.9700 
G01 Z-1.5000 F250   
G00 Z2.0000  
G00 X-58.4200 Y21.5900 
G01 Z-1.5000 F250   
G00 Z2.0000  
G00 X-60.9600 Y13.9700 
G01 Z-1.5000 F250   
G00 Z2.0000  
G00 X-60.9600 Y21.5900 
G01 Z-1.5000 F250   
G00 Z2.0000  
G00 X-63.5000 Y13.9700 
G01 Z-1.5000 F250   
G00 Z2.0000  
G00 X-63.5000 Y21.5900 
G01 Z-1.5000 F250   
G00 Z2.0000  
G00 X-66.0400 Y13.9700 
G01 Z-1.5000 F250   
G00 Z2.0000  
G00 X-66.0400 Y21.5900 
G01 Z-1.5000 F250   
G00 Z2.0000  
G00 X-68.5800 Y13.9700 
G01 Z-1.5000 F250   
G00 Z2.0000  
G00 X-68.5800 Y21.5900 
G01 Z-1.5000 F250   
G00 Z2.0000  
G00 X-71.1200 Y13.9700 
G01 Z-1.5000 F250   
G00 Z2.0000  
G00 X-71.1200 Y21.5900 
G01 Z-1.5000 F250   
G00 Z2.0000  
G00 X-73.6600 Y13.9700 
G01 Z-1.5000 F250   
G00 Z2.0000  
G00 X-73.6600 Y21.5900 
G01 Z-1.5000 F250   
G00 Z2.0000  
M05
G00 Z20.0000 
G00 X20.0000 Y20.0000 
M06 T03  ; 1.0160  
G00 Z2.0000  
M03
G04 P3.000000
G00 X-20.3200 Y49.5300 
G01 Z-1.5000 F250   
G00 Z2.0000  
G00 X-20.3200 Y54.6100 
G01 Z-1.5000 F250   
G00 Z2.0000  
G00 X-20.3200 Y59.6900 
G01 Z-1.5000 F250   
G00 Z2.0000  
G00 X-21.5900 Y39.3700 
G01 Z-1.5000 F250   
G00 Z2.0000  
G00 X-22.8600 Y16.5100 
G01 Z-1.5000 F250   
G00 Z2.0000  
G00 X-22.8600 Y19.0500 
G01 Z-1.5000 F250   
G00 Z2.0000  
G00 X-22.8600 Y21.5900 
G01 Z-1.5000 F250   
G00 Z2.0000  
G00 X-22.8600 Y24.1300 
G01 Z-1.5000 F250   
G00 Z2.0000  
G00 X-22.8600 Y26.6700 
G01 Z-1.5000 F250   
G00 Z2.0000  
G00 X-22.8600 Y29.2100 
G01 Z-1.5000 F250   
G00 Z2.0000  
G00 X-22.8600 Y31.7500 
G01 Z-1.5000 F250   
G00 Z2.0000  
G00 X-22.8600 Y49.5300 
G01 Z-1.5000 F250   
G00 Z2.0000  
G00 X-22.8600 Y54.6100 
G01 Z-1.5000 F250   
G00 Z2.0000  
G00 X-22.8600 Y59.6900 
G01 Z-1.5000 F250   
G00 Z2.0000  
G00 X-24.1300 Y39.3700 
G01 Z-1.5000 F250   
G00 Z2.0000  
G00 X-25.4000 Y49.5300 
G01 Z-1.5000 F250   
G00 Z2.0000  
G00 X-25.4000 Y54.6100 
G01 Z-1.5000 F250   
G00 Z2.0000  
G00 X-25.4000 Y59.6900 
G01 Z-1.5000 F250   
G00 Z2.0000  
G00 X-26.6700 Y39.3700 
G01 Z-1.5000 F250   
G00 Z2.0000  
G00 X-59.6900 Y35.5600 
G01 Z-1.5000 F250   
G00 Z2.0000  
G00 X-59.6900 Y38.1000 
G01 Z-1.5000 F250   
G00 Z2.0000  
G00 X-59.6900 Y40.6400 
G01 Z-1.5000 F250   
G00 Z2.0000  
G00 X-59.6900 Y43.1800 
G01 Z-1.5000 F250   
G00 Z2.0000  
G00 X-68.5800 Y49.5300 
G01 Z-1.5000 F250   
G00 Z2.0000  
G00 X-68.5800 Y52.0700 
G01 Z-1.5000 F250   
G00 Z2.0000  
G00 X-68.5800 Y54.6100 
G01 Z-1.5000 F250   
G00 Z2.0000  
G00 X-68.5800 Y57.1500 
G01 Z-1.5000 F250   
G00 Z2.0000  
G00 X-68.5800 Y59.6900 
G01 Z-1.5000 F250   
G00 Z2.0000  
G00 X-68.5800 Y62.2300 
G01 Z-1.5000 F250   
G00 Z2.0000  
G00 X-68.5800 Y64.7700 
G01 Z-1.5000 F250   
G00 Z2.0000  
G00 X-68.5800 Y67.3100 
G01 Z-1.5000 F250   
G00 Z2.0000  
G00 X-68.5800 Y69.8500 
G01 Z-1.5000 F250   
G00 Z2.0000  
G00 X-68.5800 Y72.3900 
G01 Z-1.5000 F250   
G00 Z2.0000  
G00 X-71.1200 Y49.5300 
G01 Z-1.5000 F250   
G00 Z2.0000  
G00 X-71.1200 Y52.0700 
G01 Z-1.5000 F250   
G00 Z2.0000  
G00 X-71.1200 Y54.6100 
G01 Z-1.5000 F250   
G00 Z2.0000  
G00 X-71.1200 Y57.1500 
G01 Z-1.5000 F250   
G00 Z2.0000  
G00 X-71.1200 Y59.6900 
G01 Z-1.5000 F250   
G00 Z2.0000  
G00 X-71.1200 Y62.2300 
G01 Z-1.5000 F250   
G00 Z2.0000  
G00 X-71.1200 Y64.7700 
G01 Z-1.5000 F250   
G00 Z2.0000  
G00 X-71.1200 Y67.3100 
G01 Z-1.5000 F250   
G00 Z2.0000  
G00 X-71.1200 Y69.8500 
G01 Z-1.5000 F250   
G00 Z2.0000  
G00 X-71.1200 Y72.3900 
G01 Z-1.5000 F250   
G00 Z2.0000  
M05
G00 Z20.0000 
G00 X20.0000 Y20.0000 
M06 T04  ; 1.7000  
G00 Z2.0000  
M03
G04 P3.000000
G00 X-25.9600 Y71.1200 
G01 Z-1.5000 F250   
G00 Z2.0000  
G00 X-29.9200 Y71.1200 
G01 Z-1.5000 F250   
G00 Z2.0000  
M05
G00 Z20.0000 
G00 X20.0000 Y20.0000 
M06 T05  ; 1.7780  
G00 Z2.0000  
M03
G04 P3.000000
G00 X-34.2900 Y25.4000 
G01 Z-1.5000 F250   
G00 Z2.0000  
G00 X-34.2900 Y66.0400 
G01 Z-1.5000 F250   
G00 Z2.0000  
G00 X-49.5300 Y25.4000 
G01 Z-1.5000 F250   
G00 Z2.0000  
G00 X-49.5300 Y66.0400 
G01 Z-1.5000 F250   
G00 Z2.0000  
T01 
G00 Z10.0000 
M05
M02
